;1001
;Machine
;vendor: Snapmaker
;description: Generic Snapmaker Marlin v20180725
M3 P100
G4 S2
G21
G90

;2D Contour1
G0 X41.464 Y-24.280 Z15.000
G0 X41.464 Y-24.280 Z15.000
G0 X41.464 Y-24.280 Z5.000
G1 X41.464 Y-24.280 Z2.000 F150
G1 X41.464 Y-24.280 Z-0.850 F150
G1 X41.471 Y-24.280 Z-0.896 F300
G1 X41.493 Y-24.280 Z-0.938 F300
G1 X41.526 Y-24.280 Z-0.971 F300
G1 X41.568 Y-24.280 Z-0.993 F300
G1 X41.614 Y-24.280 Z-1.000 F300
G1 X41.764 Y-24.280 Z-1.000 F300
G1 X41.810 Y-24.273 Z-1.000 F300
G1 X41.852 Y-24.251 Z-1.000 F300
G1 X41.885 Y-24.218 Z-1.000 F300
G1 X41.907 Y-24.176 Z-1.000 F300
G1 X41.914 Y-24.130 Z-1.000 F300
G1 X41.914 Y-23.174 Z-1.000 F300
G1 X-19.054 Y-23.174 Z-1.000 F300
G1 X-19.054 Y-25.087 Z-1.000 F300
G1 X41.914 Y-25.087 Z-1.000 F300
G1 X41.914 Y-24.130 Z-1.000 F300
G1 X41.907 Y-24.084 Z-1.000 F3000
G1 X41.885 Y-24.042 Z-1.000 F3000
G1 X41.852 Y-24.009 Z-1.000 F3000
G1 X41.810 Y-23.987 Z-1.000 F3000
G1 X41.764 Y-23.980 Z-1.000 F3000
G1 X41.614 Y-23.980 Z-1.000 F3000
G1 X41.568 Y-23.980 Z-0.993 F3000
G1 X41.526 Y-23.980 Z-0.971 F3000
G1 X41.493 Y-23.980 Z-0.938 F3000
G1 X41.471 Y-23.980 Z-0.896 F3000
G1 X41.464 Y-23.980 Z-0.850 F3000
G0 X41.464 Y-23.980 Z5.000
G0 X41.464 Y-24.280 Z5.000
G1 X41.464 Y-24.280 Z1.000 F150
G1 X41.464 Y-24.280 Z-1.850 F150
G1 X41.471 Y-24.280 Z-1.896 F300
G1 X41.493 Y-24.280 Z-1.938 F300
G1 X41.526 Y-24.280 Z-1.971 F300
G1 X41.568 Y-24.280 Z-1.993 F300
G1 X41.614 Y-24.280 Z-2.000 F300
G1 X41.764 Y-24.280 Z-2.000 F300
G1 X41.810 Y-24.273 Z-2.000 F300
G1 X41.852 Y-24.251 Z-2.000 F300
G1 X41.885 Y-24.218 Z-2.000 F300
G1 X41.907 Y-24.176 Z-2.000 F300
G1 X41.914 Y-24.130 Z-2.000 F300
G1 X41.914 Y-23.174 Z-2.000 F300
G1 X-19.054 Y-23.174 Z-2.000 F300
G1 X-19.054 Y-25.087 Z-2.000 F300
G1 X41.914 Y-25.087 Z-2.000 F300
G1 X41.914 Y-24.130 Z-2.000 F300
G1 X41.907 Y-24.084 Z-2.000 F3000
G1 X41.885 Y-24.042 Z-2.000 F3000
G1 X41.852 Y-24.009 Z-2.000 F3000
G1 X41.810 Y-23.987 Z-2.000 F3000
G1 X41.764 Y-23.980 Z-2.000 F3000
G1 X41.614 Y-23.980 Z-2.000 F3000
G1 X41.568 Y-23.980 Z-1.993 F3000
G1 X41.526 Y-23.980 Z-1.971 F3000
G1 X41.493 Y-23.980 Z-1.938 F3000
G1 X41.471 Y-23.980 Z-1.896 F3000
G1 X41.464 Y-23.980 Z-1.850 F3000
G0 X41.464 Y-23.980 Z5.000
G0 X41.464 Y-24.280 Z5.000
G1 X41.464 Y-24.280 Z0.000 F150
G1 X41.464 Y-24.280 Z-2.850 F150
G1 X41.471 Y-24.280 Z-2.896 F300
G1 X41.493 Y-24.280 Z-2.938 F300
G1 X41.526 Y-24.280 Z-2.971 F300
G1 X41.568 Y-24.280 Z-2.993 F300
G1 X41.614 Y-24.280 Z-3.000 F300
G1 X41.764 Y-24.280 Z-3.000 F300
G1 X41.810 Y-24.273 Z-3.000 F300
G1 X41.852 Y-24.251 Z-3.000 F300
G1 X41.885 Y-24.218 Z-3.000 F300
G1 X41.907 Y-24.176 Z-3.000 F300
G1 X41.914 Y-24.130 Z-3.000 F300
G1 X41.914 Y-23.174 Z-3.000 F300
G1 X-19.054 Y-23.174 Z-3.000 F300
G1 X-19.054 Y-25.087 Z-3.000 F300
G1 X41.914 Y-25.087 Z-3.000 F300
G1 X41.914 Y-24.130 Z-3.000 F300
G1 X41.907 Y-24.084 Z-3.000 F3000
G1 X41.885 Y-24.042 Z-3.000 F3000
G1 X41.852 Y-24.009 Z-3.000 F3000
G1 X41.810 Y-23.987 Z-3.000 F3000
G1 X41.764 Y-23.980 Z-3.000 F3000
G1 X41.614 Y-23.980 Z-3.000 F3000
G1 X41.568 Y-23.980 Z-2.993 F3000
G1 X41.526 Y-23.980 Z-2.971 F3000
G1 X41.493 Y-23.980 Z-2.938 F3000
G1 X41.471 Y-23.980 Z-2.896 F3000
G1 X41.464 Y-23.980 Z-2.850 F3000
G0 X41.464 Y-23.980 Z5.000
G0 X41.464 Y-24.280 Z5.000
G1 X41.464 Y-24.280 Z-1.000 F150
G1 X41.464 Y-24.280 Z-3.850 F150
G1 X41.471 Y-24.280 Z-3.896 F300
G1 X41.493 Y-24.280 Z-3.938 F300
G1 X41.526 Y-24.280 Z-3.971 F300
G1 X41.568 Y-24.280 Z-3.993 F300
G1 X41.614 Y-24.280 Z-4.000 F300
G1 X41.764 Y-24.280 Z-4.000 F300
G1 X41.810 Y-24.273 Z-4.000 F300
G1 X41.852 Y-24.251 Z-4.000 F300
G1 X41.885 Y-24.218 Z-4.000 F300
G1 X41.907 Y-24.176 Z-4.000 F300
G1 X41.914 Y-24.130 Z-4.000 F300
G1 X41.914 Y-23.174 Z-4.000 F300
G1 X-19.054 Y-23.174 Z-4.000 F300
G1 X-19.054 Y-25.087 Z-4.000 F300
G1 X41.914 Y-25.087 Z-4.000 F300
G1 X41.914 Y-24.130 Z-4.000 F300
G1 X41.907 Y-24.084 Z-4.000 F3000
G1 X41.885 Y-24.042 Z-4.000 F3000
G1 X41.852 Y-24.009 Z-4.000 F3000
G1 X41.810 Y-23.987 Z-4.000 F3000
G1 X41.764 Y-23.980 Z-4.000 F3000
G1 X41.614 Y-23.980 Z-4.000 F3000
G1 X41.568 Y-23.980 Z-3.993 F3000
G1 X41.526 Y-23.980 Z-3.971 F3000
G1 X41.493 Y-23.980 Z-3.938 F3000
G1 X41.471 Y-23.980 Z-3.896 F3000
G1 X41.464 Y-23.980 Z-3.850 F3000
G0 X41.464 Y-23.980 Z5.000
G0 X41.464 Y-24.280 Z5.000
G1 X41.464 Y-24.280 Z-2.000 F150
G1 X41.464 Y-24.280 Z-4.350 F150
G1 X41.471 Y-24.280 Z-4.396 F300
G1 X41.493 Y-24.280 Z-4.438 F300
G1 X41.526 Y-24.280 Z-4.471 F300
G1 X41.568 Y-24.280 Z-4.493 F300
G1 X41.614 Y-24.280 Z-4.500 F300
G1 X41.764 Y-24.280 Z-4.500 F300
G1 X41.810 Y-24.273 Z-4.500 F300
G1 X41.852 Y-24.251 Z-4.500 F300
G1 X41.885 Y-24.218 Z-4.500 F300
G1 X41.907 Y-24.176 Z-4.500 F300
G1 X41.914 Y-24.130 Z-4.500 F300
G1 X41.914 Y-23.174 Z-4.500 F300
G1 X-19.054 Y-23.174 Z-4.500 F300
G1 X-19.054 Y-25.087 Z-4.500 F300
G1 X41.914 Y-25.087 Z-4.500 F300
G1 X41.914 Y-24.130 Z-4.500 F300
G1 X41.907 Y-24.084 Z-4.500 F3000
G1 X41.885 Y-24.042 Z-4.500 F3000
G1 X41.852 Y-24.009 Z-4.500 F3000
G1 X41.810 Y-23.987 Z-4.500 F3000
G1 X41.764 Y-23.980 Z-4.500 F3000
G1 X41.614 Y-23.980 Z-4.500 F3000
G1 X41.568 Y-23.980 Z-4.493 F3000
G1 X41.526 Y-23.980 Z-4.471 F3000
G1 X41.493 Y-23.980 Z-4.438 F3000
G1 X41.471 Y-23.980 Z-4.396 F3000
G1 X41.464 Y-23.980 Z-4.350 F3000
G0 X41.464 Y-23.980 Z5.000
G0 X46.227 Y-18.247 Z5.000
G1 X46.227 Y-18.247 Z2.000 F150
G1 X46.227 Y-18.247 Z-0.850 F150
G1 X46.234 Y-18.247 Z-0.896 F300
G1 X46.255 Y-18.247 Z-0.938 F300
G1 X46.288 Y-18.247 Z-0.971 F300
G1 X46.330 Y-18.247 Z-0.993 F300
G1 X46.376 Y-18.247 Z-1.000 F300
G1 X46.527 Y-18.247 Z-1.000 F300
G1 X46.573 Y-18.240 Z-1.000 F300
G1 X46.615 Y-18.219 Z-1.000 F300
G1 X46.648 Y-18.186 Z-1.000 F300
G1 X46.669 Y-18.144 Z-1.000 F300
G1 X46.676 Y-18.097 Z-1.000 F300
G1 X46.676 Y25.404 Z-1.000 F300
G1 X42.223 Y25.404 Z-1.000 F300
G1 X42.223 Y-20.324 Z-1.000 F300
G1 X46.676 Y-20.324 Z-1.000 F300
G1 X46.676 Y-18.097 Z-1.000 F300
G1 X46.669 Y-18.051 Z-1.000 F3000
G1 X46.648 Y-18.009 Z-1.000 F3000
G1 X46.615 Y-17.976 Z-1.000 F3000
G1 X46.573 Y-17.955 Z-1.000 F3000
G1 X46.527 Y-17.948 Z-1.000 F3000
G1 X46.376 Y-17.948 Z-1.000 F3000
G1 X46.330 Y-17.948 Z-0.993 F3000
G1 X46.288 Y-17.948 Z-0.971 F3000
G1 X46.255 Y-17.948 Z-0.938 F3000
G1 X46.234 Y-17.948 Z-0.896 F3000
G1 X46.227 Y-17.948 Z-0.850 F3000
G0 X46.227 Y-17.948 Z5.000
G0 X46.227 Y-18.247 Z5.000
G1 X46.227 Y-18.247 Z1.000 F150
G1 X46.227 Y-18.247 Z-1.850 F150
G1 X46.234 Y-18.247 Z-1.896 F300
G1 X46.255 Y-18.247 Z-1.938 F300
G1 X46.288 Y-18.247 Z-1.971 F300
G1 X46.330 Y-18.247 Z-1.993 F300
G1 X46.376 Y-18.247 Z-2.000 F300
G1 X46.527 Y-18.247 Z-2.000 F300
G1 X46.573 Y-18.240 Z-2.000 F300
G1 X46.615 Y-18.219 Z-2.000 F300
G1 X46.648 Y-18.186 Z-2.000 F300
G1 X46.669 Y-18.144 Z-2.000 F300
G1 X46.676 Y-18.097 Z-2.000 F300
G1 X46.676 Y25.404 Z-2.000 F300
G1 X42.223 Y25.404 Z-2.000 F300
G1 X42.223 Y-20.324 Z-2.000 F300
G1 X46.676 Y-20.324 Z-2.000 F300
G1 X46.676 Y-18.097 Z-2.000 F300
G1 X46.669 Y-18.051 Z-2.000 F3000
G1 X46.648 Y-18.009 Z-2.000 F3000
G1 X46.615 Y-17.976 Z-2.000 F3000
G1 X46.573 Y-17.955 Z-2.000 F3000
G1 X46.527 Y-17.948 Z-2.000 F3000
G1 X46.376 Y-17.948 Z-2.000 F3000
G1 X46.330 Y-17.948 Z-1.993 F3000
G1 X46.288 Y-17.948 Z-1.971 F3000
G1 X46.255 Y-17.948 Z-1.938 F3000
G1 X46.234 Y-17.948 Z-1.896 F3000
G1 X46.227 Y-17.948 Z-1.850 F3000
G0 X46.227 Y-17.948 Z5.000
G0 X46.227 Y-18.247 Z5.000
G1 X46.227 Y-18.247 Z0.000 F150
G1 X46.227 Y-18.247 Z-2.850 F150
G1 X46.234 Y-18.247 Z-2.896 F300
G1 X46.255 Y-18.247 Z-2.938 F300
G1 X46.288 Y-18.247 Z-2.971 F300
G1 X46.330 Y-18.247 Z-2.993 F300
G1 X46.376 Y-18.247 Z-3.000 F300
G1 X46.527 Y-18.247 Z-3.000 F300
G1 X46.573 Y-18.240 Z-3.000 F300
G1 X46.615 Y-18.219 Z-3.000 F300
G1 X46.648 Y-18.186 Z-3.000 F300
G1 X46.669 Y-18.144 Z-3.000 F300
G1 X46.676 Y-18.097 Z-3.000 F300
G1 X46.676 Y25.404 Z-3.000 F300
G1 X42.223 Y25.404 Z-3.000 F300
G1 X42.223 Y-20.324 Z-3.000 F300
G1 X46.676 Y-20.324 Z-3.000 F300
G1 X46.676 Y-18.097 Z-3.000 F300
G1 X46.669 Y-18.051 Z-3.000 F3000
G1 X46.648 Y-18.009 Z-3.000 F3000
G1 X46.615 Y-17.976 Z-3.000 F3000
G1 X46.573 Y-17.955 Z-3.000 F3000
G1 X46.527 Y-17.948 Z-3.000 F3000
G1 X46.376 Y-17.948 Z-3.000 F3000
G1 X46.330 Y-17.948 Z-2.993 F3000
G1 X46.288 Y-17.948 Z-2.971 F3000
G1 X46.255 Y-17.948 Z-2.938 F3000
G1 X46.234 Y-17.948 Z-2.896 F3000
G1 X46.227 Y-17.948 Z-2.850 F3000
G0 X46.227 Y-17.948 Z5.000
G0 X46.227 Y-18.247 Z5.000
G1 X46.227 Y-18.247 Z-1.000 F150
G1 X46.227 Y-18.247 Z-3.850 F150
G1 X46.234 Y-18.247 Z-3.896 F300
G1 X46.255 Y-18.247 Z-3.938 F300
G1 X46.288 Y-18.247 Z-3.971 F300
G1 X46.330 Y-18.247 Z-3.993 F300
G1 X46.376 Y-18.247 Z-4.000 F300
G1 X46.527 Y-18.247 Z-4.000 F300
G1 X46.573 Y-18.240 Z-4.000 F300
G1 X46.615 Y-18.219 Z-4.000 F300
G1 X46.648 Y-18.186 Z-4.000 F300
G1 X46.669 Y-18.144 Z-4.000 F300
G1 X46.676 Y-18.097 Z-4.000 F300
G1 X46.676 Y25.404 Z-4.000 F300
G1 X42.223 Y25.404 Z-4.000 F300
G1 X42.223 Y-20.324 Z-4.000 F300
G1 X46.676 Y-20.324 Z-4.000 F300
G1 X46.676 Y-18.097 Z-4.000 F300
G1 X46.669 Y-18.051 Z-4.000 F3000
G1 X46.648 Y-18.009 Z-4.000 F3000
G1 X46.615 Y-17.976 Z-4.000 F3000
G1 X46.573 Y-17.955 Z-4.000 F3000
G1 X46.527 Y-17.948 Z-4.000 F3000
G1 X46.376 Y-17.948 Z-4.000 F3000
G1 X46.330 Y-17.948 Z-3.993 F3000
G1 X46.288 Y-17.948 Z-3.971 F3000
G1 X46.255 Y-17.948 Z-3.938 F3000
G1 X46.234 Y-17.948 Z-3.896 F3000
G1 X46.227 Y-17.948 Z-3.850 F3000
G0 X46.227 Y-17.948 Z5.000
G0 X46.227 Y-18.247 Z5.000
G1 X46.227 Y-18.247 Z-2.000 F150
G1 X46.227 Y-18.247 Z-4.350 F150
G1 X46.234 Y-18.247 Z-4.396 F300
G1 X46.255 Y-18.247 Z-4.438 F300
G1 X46.288 Y-18.247 Z-4.471 F300
G1 X46.330 Y-18.247 Z-4.493 F300
G1 X46.376 Y-18.247 Z-4.500 F300
G1 X46.527 Y-18.247 Z-4.500 F300
G1 X46.573 Y-18.240 Z-4.500 F300
G1 X46.615 Y-18.219 Z-4.500 F300
G1 X46.648 Y-18.186 Z-4.500 F300
G1 X46.669 Y-18.144 Z-4.500 F300
G1 X46.676 Y-18.097 Z-4.500 F300
G1 X46.676 Y25.404 Z-4.500 F300
G1 X42.223 Y25.404 Z-4.500 F300
G1 X42.223 Y-20.324 Z-4.500 F300
G1 X46.676 Y-20.324 Z-4.500 F300
G1 X46.676 Y-18.097 Z-4.500 F300
G1 X46.669 Y-18.051 Z-4.500 F3000
G1 X46.648 Y-18.009 Z-4.500 F3000
G1 X46.615 Y-17.976 Z-4.500 F3000
G1 X46.573 Y-17.955 Z-4.500 F3000
G1 X46.527 Y-17.948 Z-4.500 F3000
G1 X46.376 Y-17.948 Z-4.500 F3000
G1 X46.330 Y-17.948 Z-4.493 F3000
G1 X46.288 Y-17.948 Z-4.471 F3000
G1 X46.255 Y-17.948 Z-4.438 F3000
G1 X46.234 Y-17.948 Z-4.396 F3000
G1 X46.227 Y-17.948 Z-4.350 F3000
G0 X46.227 Y-17.948 Z5.000
G0 X50.200 Y-30.420 Z5.000
G1 X50.200 Y-30.420 Z2.000 F150
G1 X50.200 Y-30.420 Z-0.850 F150
G1 X50.207 Y-30.420 Z-0.896 F300
G1 X50.229 Y-30.420 Z-0.938 F300
G1 X50.262 Y-30.420 Z-0.971 F300
G1 X50.304 Y-30.420 Z-0.993 F300
G1 X50.350 Y-30.420 Z-1.000 F300
G1 X50.500 Y-30.420 Z-1.000 F300
G1 X50.546 Y-30.413 Z-1.000 F300
G1 X50.588 Y-30.391 Z-1.000 F300
G1 X50.621 Y-30.358 Z-1.000 F300
G1 X50.643 Y-30.316 Z-1.000 F300
G1 X50.650 Y-30.270 Z-1.000 F300
G1 X50.642 Y-30.130 Z-1.000 F300
G1 X50.619 Y-29.992 Z-1.000 F300
G1 X50.580 Y-29.857 Z-1.000 F300
G1 X50.526 Y-29.728 Z-1.000 F300
G1 X50.458 Y-29.605 Z-1.000 F300
G1 X50.377 Y-29.491 Z-1.000 F300
G1 X50.284 Y-29.386 Z-1.000 F300
G1 X50.179 Y-29.293 Z-1.000 F300
G1 X50.065 Y-29.212 Z-1.000 F300
G1 X49.942 Y-29.144 Z-1.000 F300
G1 X49.813 Y-29.090 Z-1.000 F300
G1 X49.678 Y-29.051 Z-1.000 F300
G1 X49.540 Y-29.028 Z-1.000 F300
G1 X49.400 Y-29.020 Z-1.000 F300
G1 X49.260 Y-29.028 Z-1.000 F300
G1 X49.122 Y-29.051 Z-1.000 F300
G1 X48.987 Y-29.090 Z-1.000 F300
G1 X48.858 Y-29.144 Z-1.000 F300
G1 X48.735 Y-29.212 Z-1.000 F300
G1 X48.621 Y-29.293 Z-1.000 F300
G1 X48.516 Y-29.386 Z-1.000 F300
G1 X48.423 Y-29.491 Z-1.000 F300
G1 X48.342 Y-29.605 Z-1.000 F300
G1 X48.274 Y-29.728 Z-1.000 F300
G1 X48.220 Y-29.857 Z-1.000 F300
G1 X48.181 Y-29.992 Z-1.000 F300
G1 X48.158 Y-30.130 Z-1.000 F300
G1 X48.150 Y-30.270 Z-1.000 F300
G1 X48.158 Y-30.410 Z-1.000 F300
G1 X48.181 Y-30.548 Z-1.000 F300
G1 X48.220 Y-30.683 Z-1.000 F300
G1 X48.274 Y-30.812 Z-1.000 F300
G1 X48.342 Y-30.935 Z-1.000 F300
G1 X48.423 Y-31.049 Z-1.000 F300
G1 X48.516 Y-31.154 Z-1.000 F300
G1 X48.621 Y-31.247 Z-1.000 F300
G1 X48.735 Y-31.328 Z-1.000 F300
G1 X48.858 Y-31.396 Z-1.000 F300
G1 X48.987 Y-31.450 Z-1.000 F300
G1 X49.122 Y-31.489 Z-1.000 F300
G1 X49.260 Y-31.512 Z-1.000 F300
G1 X49.400 Y-31.520 Z-1.000 F300
G1 X49.540 Y-31.512 Z-1.000 F300
G1 X49.678 Y-31.489 Z-1.000 F300
G1 X49.813 Y-31.450 Z-1.000 F300
G1 X49.942 Y-31.396 Z-1.000 F300
G1 X50.065 Y-31.328 Z-1.000 F300
G1 X50.179 Y-31.247 Z-1.000 F300
G1 X50.284 Y-31.154 Z-1.000 F300
G1 X50.377 Y-31.049 Z-1.000 F300
G1 X50.458 Y-30.935 Z-1.000 F300
G1 X50.526 Y-30.812 Z-1.000 F300
G1 X50.580 Y-30.683 Z-1.000 F300
G1 X50.619 Y-30.548 Z-1.000 F300
G1 X50.642 Y-30.410 Z-1.000 F300
G1 X50.650 Y-30.270 Z-1.000 F300
G1 X50.643 Y-30.224 Z-1.000 F3000
G1 X50.621 Y-30.182 Z-1.000 F3000
G1 X50.588 Y-30.149 Z-1.000 F3000
G1 X50.546 Y-30.127 Z-1.000 F3000
G1 X50.500 Y-30.120 Z-1.000 F3000
G1 X50.350 Y-30.120 Z-1.000 F3000
G1 X50.304 Y-30.120 Z-0.993 F3000
G1 X50.262 Y-30.120 Z-0.971 F3000
G1 X50.229 Y-30.120 Z-0.938 F3000
G1 X50.207 Y-30.120 Z-0.896 F3000
G1 X50.200 Y-30.120 Z-0.850 F3000
G0 X50.200 Y-30.120 Z5.000
G0 X50.200 Y-30.420 Z5.000
G1 X50.200 Y-30.420 Z1.000 F150
G1 X50.200 Y-30.420 Z-1.850 F150
G1 X50.207 Y-30.420 Z-1.896 F300
G1 X50.229 Y-30.420 Z-1.938 F300
G1 X50.262 Y-30.420 Z-1.971 F300
G1 X50.304 Y-30.420 Z-1.993 F300
G1 X50.350 Y-30.420 Z-2.000 F300
G1 X50.500 Y-30.420 Z-2.000 F300
G1 X50.546 Y-30.413 Z-2.000 F300
G1 X50.588 Y-30.391 Z-2.000 F300
G1 X50.621 Y-30.358 Z-2.000 F300
G1 X50.643 Y-30.316 Z-2.000 F300
G1 X50.650 Y-30.270 Z-2.000 F300
G1 X50.642 Y-30.130 Z-2.000 F300
G1 X50.619 Y-29.992 Z-2.000 F300
G1 X50.580 Y-29.857 Z-2.000 F300
G1 X50.526 Y-29.728 Z-2.000 F300
G1 X50.458 Y-29.605 Z-2.000 F300
G1 X50.377 Y-29.491 Z-2.000 F300
G1 X50.284 Y-29.386 Z-2.000 F300
G1 X50.179 Y-29.293 Z-2.000 F300
G1 X50.065 Y-29.212 Z-2.000 F300
G1 X49.942 Y-29.144 Z-2.000 F300
G1 X49.813 Y-29.090 Z-2.000 F300
G1 X49.678 Y-29.051 Z-2.000 F300
G1 X49.540 Y-29.028 Z-2.000 F300
G1 X49.400 Y-29.020 Z-2.000 F300
G1 X49.260 Y-29.028 Z-2.000 F300
G1 X49.122 Y-29.051 Z-2.000 F300
G1 X48.987 Y-29.090 Z-2.000 F300
G1 X48.858 Y-29.144 Z-2.000 F300
G1 X48.735 Y-29.212 Z-2.000 F300
G1 X48.621 Y-29.293 Z-2.000 F300
G1 X48.516 Y-29.386 Z-2.000 F300
G1 X48.423 Y-29.491 Z-2.000 F300
G1 X48.342 Y-29.605 Z-2.000 F300
G1 X48.274 Y-29.728 Z-2.000 F300
G1 X48.220 Y-29.857 Z-2.000 F300
G1 X48.181 Y-29.992 Z-2.000 F300
G1 X48.158 Y-30.130 Z-2.000 F300
G1 X48.150 Y-30.270 Z-2.000 F300
G1 X48.158 Y-30.410 Z-2.000 F300
G1 X48.181 Y-30.548 Z-2.000 F300
G1 X48.220 Y-30.683 Z-2.000 F300
G1 X48.274 Y-30.812 Z-2.000 F300
G1 X48.342 Y-30.935 Z-2.000 F300
G1 X48.423 Y-31.049 Z-2.000 F300
G1 X48.516 Y-31.154 Z-2.000 F300
G1 X48.621 Y-31.247 Z-2.000 F300
G1 X48.735 Y-31.328 Z-2.000 F300
G1 X48.858 Y-31.396 Z-2.000 F300
G1 X48.987 Y-31.450 Z-2.000 F300
G1 X49.122 Y-31.489 Z-2.000 F300
G1 X49.260 Y-31.512 Z-2.000 F300
G1 X49.400 Y-31.520 Z-2.000 F300
G1 X49.540 Y-31.512 Z-2.000 F300
G1 X49.678 Y-31.489 Z-2.000 F300
G1 X49.813 Y-31.450 Z-2.000 F300
G1 X49.942 Y-31.396 Z-2.000 F300
G1 X50.065 Y-31.328 Z-2.000 F300
G1 X50.179 Y-31.247 Z-2.000 F300
G1 X50.284 Y-31.154 Z-2.000 F300
G1 X50.377 Y-31.049 Z-2.000 F300
G1 X50.458 Y-30.935 Z-2.000 F300
G1 X50.526 Y-30.812 Z-2.000 F300
G1 X50.580 Y-30.683 Z-2.000 F300
G1 X50.619 Y-30.548 Z-2.000 F300
G1 X50.642 Y-30.410 Z-2.000 F300
G1 X50.650 Y-30.270 Z-2.000 F300
G1 X50.643 Y-30.224 Z-2.000 F3000
G1 X50.621 Y-30.182 Z-2.000 F3000
G1 X50.588 Y-30.149 Z-2.000 F3000
G1 X50.546 Y-30.127 Z-2.000 F3000
G1 X50.500 Y-30.120 Z-2.000 F3000
G1 X50.350 Y-30.120 Z-2.000 F3000
G1 X50.304 Y-30.120 Z-1.993 F3000
G1 X50.262 Y-30.120 Z-1.971 F3000
G1 X50.229 Y-30.120 Z-1.938 F3000
G1 X50.207 Y-30.120 Z-1.896 F3000
G1 X50.200 Y-30.120 Z-1.850 F3000
G0 X50.200 Y-30.120 Z5.000
G0 X50.200 Y-30.420 Z5.000
G1 X50.200 Y-30.420 Z0.000 F150
G1 X50.200 Y-30.420 Z-2.850 F150
G1 X50.207 Y-30.420 Z-2.896 F300
G1 X50.229 Y-30.420 Z-2.938 F300
G1 X50.262 Y-30.420 Z-2.971 F300
G1 X50.304 Y-30.420 Z-2.993 F300
G1 X50.350 Y-30.420 Z-3.000 F300
G1 X50.500 Y-30.420 Z-3.000 F300
G1 X50.546 Y-30.413 Z-3.000 F300
G1 X50.588 Y-30.391 Z-3.000 F300
G1 X50.621 Y-30.358 Z-3.000 F300
G1 X50.643 Y-30.316 Z-3.000 F300
G1 X50.650 Y-30.270 Z-3.000 F300
G1 X50.642 Y-30.130 Z-3.000 F300
G1 X50.619 Y-29.992 Z-3.000 F300
G1 X50.580 Y-29.857 Z-3.000 F300
G1 X50.526 Y-29.728 Z-3.000 F300
G1 X50.458 Y-29.605 Z-3.000 F300
G1 X50.377 Y-29.491 Z-3.000 F300
G1 X50.284 Y-29.386 Z-3.000 F300
G1 X50.179 Y-29.293 Z-3.000 F300
G1 X50.065 Y-29.212 Z-3.000 F300
G1 X49.942 Y-29.144 Z-3.000 F300
G1 X49.813 Y-29.090 Z-3.000 F300
G1 X49.678 Y-29.051 Z-3.000 F300
G1 X49.540 Y-29.028 Z-3.000 F300
G1 X49.400 Y-29.020 Z-3.000 F300
G1 X49.260 Y-29.028 Z-3.000 F300
G1 X49.122 Y-29.051 Z-3.000 F300
G1 X48.987 Y-29.090 Z-3.000 F300
G1 X48.858 Y-29.144 Z-3.000 F300
G1 X48.735 Y-29.212 Z-3.000 F300
G1 X48.621 Y-29.293 Z-3.000 F300
G1 X48.516 Y-29.386 Z-3.000 F300
G1 X48.423 Y-29.491 Z-3.000 F300
G1 X48.342 Y-29.605 Z-3.000 F300
G1 X48.274 Y-29.728 Z-3.000 F300
G1 X48.220 Y-29.857 Z-3.000 F300
G1 X48.181 Y-29.992 Z-3.000 F300
G1 X48.158 Y-30.130 Z-3.000 F300
G1 X48.150 Y-30.270 Z-3.000 F300
G1 X48.158 Y-30.410 Z-3.000 F300
G1 X48.181 Y-30.548 Z-3.000 F300
G1 X48.220 Y-30.683 Z-3.000 F300
G1 X48.274 Y-30.812 Z-3.000 F300
G1 X48.342 Y-30.935 Z-3.000 F300
G1 X48.423 Y-31.049 Z-3.000 F300
G1 X48.516 Y-31.154 Z-3.000 F300
G1 X48.621 Y-31.247 Z-3.000 F300
G1 X48.735 Y-31.328 Z-3.000 F300
G1 X48.858 Y-31.396 Z-3.000 F300
G1 X48.987 Y-31.450 Z-3.000 F300
G1 X49.122 Y-31.489 Z-3.000 F300
G1 X49.260 Y-31.512 Z-3.000 F300
G1 X49.400 Y-31.520 Z-3.000 F300
G1 X49.540 Y-31.512 Z-3.000 F300
G1 X49.678 Y-31.489 Z-3.000 F300
G1 X49.813 Y-31.450 Z-3.000 F300
G1 X49.942 Y-31.396 Z-3.000 F300
G1 X50.065 Y-31.328 Z-3.000 F300
G1 X50.179 Y-31.247 Z-3.000 F300
G1 X50.284 Y-31.154 Z-3.000 F300
G1 X50.377 Y-31.049 Z-3.000 F300
G1 X50.458 Y-30.935 Z-3.000 F300
G1 X50.526 Y-30.812 Z-3.000 F300
G1 X50.580 Y-30.683 Z-3.000 F300
G1 X50.619 Y-30.548 Z-3.000 F300
G1 X50.642 Y-30.410 Z-3.000 F300
G1 X50.650 Y-30.270 Z-3.000 F300
G1 X50.643 Y-30.224 Z-3.000 F3000
G1 X50.621 Y-30.182 Z-3.000 F3000
G1 X50.588 Y-30.149 Z-3.000 F3000
G1 X50.546 Y-30.127 Z-3.000 F3000
G1 X50.500 Y-30.120 Z-3.000 F3000
G1 X50.350 Y-30.120 Z-3.000 F3000
G1 X50.304 Y-30.120 Z-2.993 F3000
G1 X50.262 Y-30.120 Z-2.971 F3000
G1 X50.229 Y-30.120 Z-2.938 F3000
G1 X50.207 Y-30.120 Z-2.896 F3000
G1 X50.200 Y-30.120 Z-2.850 F3000
G0 X50.200 Y-30.120 Z5.000
G0 X50.200 Y-30.420 Z5.000
G1 X50.200 Y-30.420 Z-1.000 F150
G1 X50.200 Y-30.420 Z-3.850 F150
G1 X50.207 Y-30.420 Z-3.896 F300
G1 X50.229 Y-30.420 Z-3.938 F300
G1 X50.262 Y-30.420 Z-3.971 F300
G1 X50.304 Y-30.420 Z-3.993 F300
G1 X50.350 Y-30.420 Z-4.000 F300
G1 X50.500 Y-30.420 Z-4.000 F300
G1 X50.546 Y-30.413 Z-4.000 F300
G1 X50.588 Y-30.391 Z-4.000 F300
G1 X50.621 Y-30.358 Z-4.000 F300
G1 X50.643 Y-30.316 Z-4.000 F300
G1 X50.650 Y-30.270 Z-4.000 F300
G1 X50.642 Y-30.130 Z-4.000 F300
G1 X50.619 Y-29.992 Z-4.000 F300
G1 X50.580 Y-29.857 Z-4.000 F300
G1 X50.526 Y-29.728 Z-4.000 F300
G1 X50.458 Y-29.605 Z-4.000 F300
G1 X50.377 Y-29.491 Z-4.000 F300
G1 X50.284 Y-29.386 Z-4.000 F300
G1 X50.179 Y-29.293 Z-4.000 F300
G1 X50.065 Y-29.212 Z-4.000 F300
G1 X49.942 Y-29.144 Z-4.000 F300
G1 X49.813 Y-29.090 Z-4.000 F300
G1 X49.678 Y-29.051 Z-4.000 F300
G1 X49.540 Y-29.028 Z-4.000 F300
G1 X49.400 Y-29.020 Z-4.000 F300
G1 X49.260 Y-29.028 Z-4.000 F300
G1 X49.122 Y-29.051 Z-4.000 F300
G1 X48.987 Y-29.090 Z-4.000 F300
G1 X48.858 Y-29.144 Z-4.000 F300
G1 X48.735 Y-29.212 Z-4.000 F300
G1 X48.621 Y-29.293 Z-4.000 F300
G1 X48.516 Y-29.386 Z-4.000 F300
G1 X48.423 Y-29.491 Z-4.000 F300
G1 X48.342 Y-29.605 Z-4.000 F300
G1 X48.274 Y-29.728 Z-4.000 F300
G1 X48.220 Y-29.857 Z-4.000 F300
G1 X48.181 Y-29.992 Z-4.000 F300
G1 X48.158 Y-30.130 Z-4.000 F300
G1 X48.150 Y-30.270 Z-4.000 F300
G1 X48.158 Y-30.410 Z-4.000 F300
G1 X48.181 Y-30.548 Z-4.000 F300
G1 X48.220 Y-30.683 Z-4.000 F300
G1 X48.274 Y-30.812 Z-4.000 F300
G1 X48.342 Y-30.935 Z-4.000 F300
G1 X48.423 Y-31.049 Z-4.000 F300
G1 X48.516 Y-31.154 Z-4.000 F300
G1 X48.621 Y-31.247 Z-4.000 F300
G1 X48.735 Y-31.328 Z-4.000 F300
G1 X48.858 Y-31.396 Z-4.000 F300
G1 X48.987 Y-31.450 Z-4.000 F300
G1 X49.122 Y-31.489 Z-4.000 F300
G1 X49.260 Y-31.512 Z-4.000 F300
G1 X49.400 Y-31.520 Z-4.000 F300
G1 X49.540 Y-31.512 Z-4.000 F300
G1 X49.678 Y-31.489 Z-4.000 F300
G1 X49.813 Y-31.450 Z-4.000 F300
G1 X49.942 Y-31.396 Z-4.000 F300
G1 X50.065 Y-31.328 Z-4.000 F300
G1 X50.179 Y-31.247 Z-4.000 F300
G1 X50.284 Y-31.154 Z-4.000 F300
G1 X50.377 Y-31.049 Z-4.000 F300
G1 X50.458 Y-30.935 Z-4.000 F300
G1 X50.526 Y-30.812 Z-4.000 F300
G1 X50.580 Y-30.683 Z-4.000 F300
G1 X50.619 Y-30.548 Z-4.000 F300
G1 X50.642 Y-30.410 Z-4.000 F300
G1 X50.650 Y-30.270 Z-4.000 F300
G1 X50.643 Y-30.224 Z-4.000 F3000
G1 X50.621 Y-30.182 Z-4.000 F3000
G1 X50.588 Y-30.149 Z-4.000 F3000
G1 X50.546 Y-30.127 Z-4.000 F3000
G1 X50.500 Y-30.120 Z-4.000 F3000
G1 X50.350 Y-30.120 Z-4.000 F3000
G1 X50.304 Y-30.120 Z-3.993 F3000
G1 X50.262 Y-30.120 Z-3.971 F3000
G1 X50.229 Y-30.120 Z-3.938 F3000
G1 X50.207 Y-30.120 Z-3.896 F3000
G1 X50.200 Y-30.120 Z-3.850 F3000
G0 X50.200 Y-30.120 Z5.000
G0 X50.200 Y-30.420 Z5.000
G1 X50.200 Y-30.420 Z-2.000 F150
G1 X50.200 Y-30.420 Z-4.350 F150
G1 X50.207 Y-30.420 Z-4.396 F300
G1 X50.229 Y-30.420 Z-4.438 F300
G1 X50.262 Y-30.420 Z-4.471 F300
G1 X50.304 Y-30.420 Z-4.493 F300
G1 X50.350 Y-30.420 Z-4.500 F300
G1 X50.500 Y-30.420 Z-4.500 F300
G1 X50.546 Y-30.413 Z-4.500 F300
G1 X50.588 Y-30.391 Z-4.500 F300
G1 X50.621 Y-30.358 Z-4.500 F300
G1 X50.643 Y-30.316 Z-4.500 F300
G1 X50.650 Y-30.270 Z-4.500 F300
G1 X50.642 Y-30.130 Z-4.500 F300
G1 X50.619 Y-29.992 Z-4.500 F300
G1 X50.580 Y-29.857 Z-4.500 F300
G1 X50.526 Y-29.728 Z-4.500 F300
G1 X50.458 Y-29.605 Z-4.500 F300
G1 X50.377 Y-29.491 Z-4.500 F300
G1 X50.284 Y-29.386 Z-4.500 F300
G1 X50.179 Y-29.293 Z-4.500 F300
G1 X50.065 Y-29.212 Z-4.500 F300
G1 X49.942 Y-29.144 Z-4.500 F300
G1 X49.813 Y-29.090 Z-4.500 F300
G1 X49.678 Y-29.051 Z-4.500 F300
G1 X49.540 Y-29.028 Z-4.500 F300
G1 X49.400 Y-29.020 Z-4.500 F300
G1 X49.260 Y-29.028 Z-4.500 F300
G1 X49.122 Y-29.051 Z-4.500 F300
G1 X48.987 Y-29.090 Z-4.500 F300
G1 X48.858 Y-29.144 Z-4.500 F300
G1 X48.735 Y-29.212 Z-4.500 F300
G1 X48.621 Y-29.293 Z-4.500 F300
G1 X48.516 Y-29.386 Z-4.500 F300
G1 X48.423 Y-29.491 Z-4.500 F300
G1 X48.342 Y-29.605 Z-4.500 F300
G1 X48.274 Y-29.728 Z-4.500 F300
G1 X48.220 Y-29.857 Z-4.500 F300
G1 X48.181 Y-29.992 Z-4.500 F300
G1 X48.158 Y-30.130 Z-4.500 F300
G1 X48.150 Y-30.270 Z-4.500 F300
G1 X48.158 Y-30.410 Z-4.500 F300
G1 X48.181 Y-30.548 Z-4.500 F300
G1 X48.220 Y-30.683 Z-4.500 F300
G1 X48.274 Y-30.812 Z-4.500 F300
G1 X48.342 Y-30.935 Z-4.500 F300
G1 X48.423 Y-31.049 Z-4.500 F300
G1 X48.516 Y-31.154 Z-4.500 F300
G1 X48.621 Y-31.247 Z-4.500 F300
G1 X48.735 Y-31.328 Z-4.500 F300
G1 X48.858 Y-31.396 Z-4.500 F300
G1 X48.987 Y-31.450 Z-4.500 F300
G1 X49.122 Y-31.489 Z-4.500 F300
G1 X49.260 Y-31.512 Z-4.500 F300
G1 X49.400 Y-31.520 Z-4.500 F300
G1 X49.540 Y-31.512 Z-4.500 F300
G1 X49.678 Y-31.489 Z-4.500 F300
G1 X49.813 Y-31.450 Z-4.500 F300
G1 X49.942 Y-31.396 Z-4.500 F300
G1 X50.065 Y-31.328 Z-4.500 F300
G1 X50.179 Y-31.247 Z-4.500 F300
G1 X50.284 Y-31.154 Z-4.500 F300
G1 X50.377 Y-31.049 Z-4.500 F300
G1 X50.458 Y-30.935 Z-4.500 F300
G1 X50.526 Y-30.812 Z-4.500 F300
G1 X50.580 Y-30.683 Z-4.500 F300
G1 X50.619 Y-30.548 Z-4.500 F300
G1 X50.642 Y-30.410 Z-4.500 F300
G1 X50.650 Y-30.270 Z-4.500 F300
G1 X50.643 Y-30.224 Z-4.500 F3000
G1 X50.621 Y-30.182 Z-4.500 F3000
G1 X50.588 Y-30.149 Z-4.500 F3000
G1 X50.546 Y-30.127 Z-4.500 F3000
G1 X50.500 Y-30.120 Z-4.500 F3000
G1 X50.350 Y-30.120 Z-4.500 F3000
G1 X50.304 Y-30.120 Z-4.493 F3000
G1 X50.262 Y-30.120 Z-4.471 F3000
G1 X50.229 Y-30.120 Z-4.438 F3000
G1 X50.207 Y-30.120 Z-4.396 F3000
G1 X50.200 Y-30.120 Z-4.350 F3000
G0 X50.200 Y-30.120 Z5.000
G0 X-27.391 Y23.624 Z5.000
G1 X-27.391 Y23.624 Z2.000 F150
G1 X-27.391 Y23.624 Z-0.850 F150
G1 X-27.391 Y23.616 Z-0.896 F300
G1 X-27.391 Y23.595 Z-0.938 F300
G1 X-27.391 Y23.562 Z-0.971 F300
G1 X-27.391 Y23.520 Z-0.993 F300
G1 X-27.391 Y23.473 Z-1.000 F300
G1 X-27.391 Y23.323 Z-1.000 F300
G1 X-27.384 Y23.277 Z-1.000 F300
G1 X-27.363 Y23.235 Z-1.000 F300
G1 X-27.330 Y23.202 Z-1.000 F300
G1 X-27.288 Y23.181 Z-1.000 F300
G1 X-27.241 Y23.174 Z-1.000 F300
G1 X36.834 Y23.174 Z-1.000 F300
G1 X36.834 Y25.087 Z-1.000 F300
G1 X-28.198 Y25.087 Z-1.000 F300
G1 X-28.198 Y23.174 Z-1.000 F300
G1 X-27.241 Y23.174 Z-1.000 F300
G1 X-27.195 Y23.181 Z-1.000 F3000
G1 X-27.153 Y23.202 Z-1.000 F3000
G1 X-27.120 Y23.235 Z-1.000 F3000
G1 X-27.099 Y23.277 Z-1.000 F3000
G1 X-27.091 Y23.323 Z-1.000 F3000
G1 X-27.091 Y23.473 Z-1.000 F3000
G1 X-27.091 Y23.520 Z-0.993 F3000
G1 X-27.091 Y23.562 Z-0.971 F3000
G1 X-27.091 Y23.595 Z-0.938 F3000
G1 X-27.091 Y23.616 Z-0.896 F3000
G1 X-27.091 Y23.624 Z-0.850 F3000
G0 X-27.091 Y23.624 Z5.000
G0 X-27.391 Y23.624 Z5.000
G1 X-27.391 Y23.624 Z1.000 F150
G1 X-27.391 Y23.624 Z-1.850 F150
G1 X-27.391 Y23.616 Z-1.896 F300
G1 X-27.391 Y23.595 Z-1.938 F300
G1 X-27.391 Y23.562 Z-1.971 F300
G1 X-27.391 Y23.520 Z-1.993 F300
G1 X-27.391 Y23.473 Z-2.000 F300
G1 X-27.391 Y23.323 Z-2.000 F300
G1 X-27.384 Y23.277 Z-2.000 F300
G1 X-27.363 Y23.235 Z-2.000 F300
G1 X-27.330 Y23.202 Z-2.000 F300
G1 X-27.288 Y23.181 Z-2.000 F300
G1 X-27.241 Y23.174 Z-2.000 F300
G1 X36.834 Y23.174 Z-2.000 F300
G1 X36.834 Y25.087 Z-2.000 F300
G1 X-28.198 Y25.087 Z-2.000 F300
G1 X-28.198 Y23.174 Z-2.000 F300
G1 X-27.241 Y23.174 Z-2.000 F300
G1 X-27.195 Y23.181 Z-2.000 F3000
G1 X-27.153 Y23.202 Z-2.000 F3000
G1 X-27.120 Y23.235 Z-2.000 F3000
G1 X-27.099 Y23.277 Z-2.000 F3000
G1 X-27.091 Y23.323 Z-2.000 F3000
G1 X-27.091 Y23.473 Z-2.000 F3000
G1 X-27.091 Y23.520 Z-1.993 F3000
G1 X-27.091 Y23.562 Z-1.971 F3000
G1 X-27.091 Y23.595 Z-1.938 F3000
G1 X-27.091 Y23.616 Z-1.896 F3000
G1 X-27.091 Y23.624 Z-1.850 F3000
G0 X-27.091 Y23.624 Z5.000
G0 X-27.391 Y23.624 Z5.000
G1 X-27.391 Y23.624 Z0.000 F150
G1 X-27.391 Y23.624 Z-2.850 F150
G1 X-27.391 Y23.616 Z-2.896 F300
G1 X-27.391 Y23.595 Z-2.938 F300
G1 X-27.391 Y23.562 Z-2.971 F300
G1 X-27.391 Y23.520 Z-2.993 F300
G1 X-27.391 Y23.473 Z-3.000 F300
G1 X-27.391 Y23.323 Z-3.000 F300
G1 X-27.384 Y23.277 Z-3.000 F300
G1 X-27.363 Y23.235 Z-3.000 F300
G1 X-27.330 Y23.202 Z-3.000 F300
G1 X-27.288 Y23.181 Z-3.000 F300
G1 X-27.241 Y23.174 Z-3.000 F300
G1 X36.834 Y23.174 Z-3.000 F300
G1 X36.834 Y25.087 Z-3.000 F300
G1 X-28.198 Y25.087 Z-3.000 F300
G1 X-28.198 Y23.174 Z-3.000 F300
G1 X-27.241 Y23.174 Z-3.000 F300
G1 X-27.195 Y23.181 Z-3.000 F3000
G1 X-27.153 Y23.202 Z-3.000 F3000
G1 X-27.120 Y23.235 Z-3.000 F3000
G1 X-27.099 Y23.277 Z-3.000 F3000
G1 X-27.091 Y23.323 Z-3.000 F3000
G1 X-27.091 Y23.473 Z-3.000 F3000
G1 X-27.091 Y23.520 Z-2.993 F3000
G1 X-27.091 Y23.562 Z-2.971 F3000
G1 X-27.091 Y23.595 Z-2.938 F3000
G1 X-27.091 Y23.616 Z-2.896 F3000
G1 X-27.091 Y23.624 Z-2.850 F3000
G0 X-27.091 Y23.624 Z5.000
G0 X-27.391 Y23.624 Z5.000
G1 X-27.391 Y23.624 Z-1.000 F150
G1 X-27.391 Y23.624 Z-3.850 F150
G1 X-27.391 Y23.616 Z-3.896 F300
G1 X-27.391 Y23.595 Z-3.938 F300
G1 X-27.391 Y23.562 Z-3.971 F300
G1 X-27.391 Y23.520 Z-3.993 F300
G1 X-27.391 Y23.473 Z-4.000 F300
G1 X-27.391 Y23.323 Z-4.000 F300
G1 X-27.384 Y23.277 Z-4.000 F300
G1 X-27.363 Y23.235 Z-4.000 F300
G1 X-27.330 Y23.202 Z-4.000 F300
G1 X-27.288 Y23.181 Z-4.000 F300
G1 X-27.241 Y23.174 Z-4.000 F300
G1 X36.834 Y23.174 Z-4.000 F300
G1 X36.834 Y25.087 Z-4.000 F300
G1 X-28.198 Y25.087 Z-4.000 F300
G1 X-28.198 Y23.174 Z-4.000 F300
G1 X-27.241 Y23.174 Z-4.000 F300
G1 X-27.195 Y23.181 Z-4.000 F3000
G1 X-27.153 Y23.202 Z-4.000 F3000
G1 X-27.120 Y23.235 Z-4.000 F3000
G1 X-27.099 Y23.277 Z-4.000 F3000
G1 X-27.091 Y23.323 Z-4.000 F3000
G1 X-27.091 Y23.473 Z-4.000 F3000
G1 X-27.091 Y23.520 Z-3.993 F3000
G1 X-27.091 Y23.562 Z-3.971 F3000
G1 X-27.091 Y23.595 Z-3.938 F3000
G1 X-27.091 Y23.616 Z-3.896 F3000
G1 X-27.091 Y23.624 Z-3.850 F3000
G0 X-27.091 Y23.624 Z5.000
G0 X-27.391 Y23.624 Z5.000
G1 X-27.391 Y23.624 Z-2.000 F150
G1 X-27.391 Y23.624 Z-4.350 F150
G1 X-27.391 Y23.616 Z-4.396 F300
G1 X-27.391 Y23.595 Z-4.438 F300
G1 X-27.391 Y23.562 Z-4.471 F300
G1 X-27.391 Y23.520 Z-4.493 F300
G1 X-27.391 Y23.473 Z-4.500 F300
G1 X-27.391 Y23.323 Z-4.500 F300
G1 X-27.384 Y23.277 Z-4.500 F300
G1 X-27.363 Y23.235 Z-4.500 F300
G1 X-27.330 Y23.202 Z-4.500 F300
G1 X-27.288 Y23.181 Z-4.500 F300
G1 X-27.241 Y23.174 Z-4.500 F300
G1 X36.834 Y23.174 Z-4.500 F300
G1 X36.834 Y25.087 Z-4.500 F300
G1 X-28.198 Y25.087 Z-4.500 F300
G1 X-28.198 Y23.174 Z-4.500 F300
G1 X-27.241 Y23.174 Z-4.500 F300
G1 X-27.195 Y23.181 Z-4.500 F3000
G1 X-27.153 Y23.202 Z-4.500 F3000
G1 X-27.120 Y23.235 Z-4.500 F3000
G1 X-27.099 Y23.277 Z-4.500 F3000
G1 X-27.091 Y23.323 Z-4.500 F3000
G1 X-27.091 Y23.473 Z-4.500 F3000
G1 X-27.091 Y23.520 Z-4.493 F3000
G1 X-27.091 Y23.562 Z-4.471 F3000
G1 X-27.091 Y23.595 Z-4.438 F3000
G1 X-27.091 Y23.616 Z-4.396 F3000
G1 X-27.091 Y23.624 Z-4.350 F3000
G0 X-27.091 Y23.624 Z5.000
G0 X-48.586 Y30.274 Z5.000
G1 X-48.586 Y30.274 Z2.000 F150
G1 X-48.586 Y30.274 Z-0.850 F150
G1 X-48.579 Y30.276 Z-0.896 F300
G1 X-48.558 Y30.280 Z-0.938 F300
G1 X-48.525 Y30.286 Z-0.971 F300
G1 X-48.484 Y30.294 Z-0.993 F300
G1 X-48.439 Y30.302 Z-1.000 F300
G1 X-48.291 Y30.331 Z-1.000 F300
G1 X-48.247 Y30.347 Z-1.000 F300
G1 X-48.210 Y30.376 Z-1.000 F300
G1 X-48.184 Y30.415 Z-1.000 F300
G1 X-48.171 Y30.460 Z-1.000 F300
G1 X-48.173 Y30.507 Z-1.000 F300
G1 X-48.207 Y30.643 Z-1.000 F300
G1 X-48.256 Y30.774 Z-1.000 F300
G1 X-48.320 Y30.899 Z-1.000 F300
G1 X-48.397 Y31.016 Z-1.000 F300
G1 X-48.487 Y31.123 Z-1.000 F300
G1 X-48.588 Y31.220 Z-1.000 F300
G1 X-48.699 Y31.305 Z-1.000 F300
G1 X-48.820 Y31.377 Z-1.000 F300
G1 X-48.947 Y31.435 Z-1.000 F300
G1 X-49.081 Y31.479 Z-1.000 F300
G1 X-49.218 Y31.507 Z-1.000 F300
G1 X-49.358 Y31.519 Z-1.000 F300
G1 X-49.498 Y31.516 Z-1.000 F300
G1 X-49.637 Y31.497 Z-1.000 F300
G1 X-49.773 Y31.463 Z-1.000 F300
G1 X-49.904 Y31.414 Z-1.000 F300
G1 X-50.029 Y31.350 Z-1.000 F300
G1 X-50.146 Y31.273 Z-1.000 F300
G1 X-50.253 Y31.183 Z-1.000 F300
G1 X-50.350 Y31.082 Z-1.000 F300
G1 X-50.435 Y30.971 Z-1.000 F300
G1 X-50.507 Y30.850 Z-1.000 F300
G1 X-50.565 Y30.723 Z-1.000 F300
G1 X-50.609 Y30.589 Z-1.000 F300
G1 X-50.637 Y30.452 Z-1.000 F300
G1 X-50.649 Y30.312 Z-1.000 F300
G1 X-50.646 Y30.172 Z-1.000 F300
G1 X-50.627 Y30.033 Z-1.000 F300
G1 X-50.593 Y29.897 Z-1.000 F300
G1 X-50.544 Y29.766 Z-1.000 F300
G1 X-50.480 Y29.641 Z-1.000 F300
G1 X-50.403 Y29.524 Z-1.000 F300
G1 X-50.313 Y29.417 Z-1.000 F300
G1 X-50.212 Y29.320 Z-1.000 F300
G1 X-50.101 Y29.235 Z-1.000 F300
G1 X-49.980 Y29.163 Z-1.000 F300
G1 X-49.853 Y29.105 Z-1.000 F300
G1 X-49.719 Y29.061 Z-1.000 F300
G1 X-49.582 Y29.033 Z-1.000 F300
G1 X-49.442 Y29.021 Z-1.000 F300
G1 X-49.302 Y29.024 Z-1.000 F300
G1 X-49.163 Y29.043 Z-1.000 F300
G1 X-49.027 Y29.077 Z-1.000 F300
G1 X-48.896 Y29.126 Z-1.000 F300
G1 X-48.771 Y29.190 Z-1.000 F300
G1 X-48.654 Y29.267 Z-1.000 F300
G1 X-48.547 Y29.357 Z-1.000 F300
G1 X-48.450 Y29.458 Z-1.000 F300
G1 X-48.365 Y29.569 Z-1.000 F300
G1 X-48.293 Y29.690 Z-1.000 F300
G1 X-48.235 Y29.817 Z-1.000 F300
G1 X-48.191 Y29.951 Z-1.000 F300
G1 X-48.163 Y30.088 Z-1.000 F300
G1 X-48.151 Y30.228 Z-1.000 F300
G1 X-48.154 Y30.368 Z-1.000 F300
G1 X-48.173 Y30.507 Z-1.000 F300
G1 X-48.189 Y30.551 Z-1.000 F3000
G1 X-48.217 Y30.588 Z-1.000 F3000
G1 X-48.256 Y30.614 Z-1.000 F3000
G1 X-48.301 Y30.627 Z-1.000 F3000
G1 X-48.348 Y30.625 Z-1.000 F3000
G1 X-48.496 Y30.597 Z-1.000 F3000
G1 X-48.541 Y30.588 Z-0.993 F3000
G1 X-48.582 Y30.580 Z-0.971 F3000
G1 X-48.615 Y30.574 Z-0.938 F3000
G1 X-48.636 Y30.570 Z-0.896 F3000
G1 X-48.643 Y30.569 Z-0.850 F3000
G0 X-48.643 Y30.569 Z5.000
G0 X-48.586 Y30.274 Z5.000
G1 X-48.586 Y30.274 Z1.000 F150
G1 X-48.586 Y30.274 Z-1.850 F150
G1 X-48.579 Y30.276 Z-1.896 F300
G1 X-48.558 Y30.280 Z-1.938 F300
G1 X-48.525 Y30.286 Z-1.971 F300
G1 X-48.484 Y30.294 Z-1.993 F300
G1 X-48.439 Y30.302 Z-2.000 F300
G1 X-48.291 Y30.331 Z-2.000 F300
G1 X-48.247 Y30.347 Z-2.000 F300
G1 X-48.210 Y30.376 Z-2.000 F300
G1 X-48.184 Y30.415 Z-2.000 F300
G1 X-48.171 Y30.460 Z-2.000 F300
G1 X-48.173 Y30.507 Z-2.000 F300
G1 X-48.207 Y30.643 Z-2.000 F300
G1 X-48.256 Y30.774 Z-2.000 F300
G1 X-48.320 Y30.899 Z-2.000 F300
G1 X-48.397 Y31.016 Z-2.000 F300
G1 X-48.487 Y31.123 Z-2.000 F300
G1 X-48.588 Y31.220 Z-2.000 F300
G1 X-48.699 Y31.305 Z-2.000 F300
G1 X-48.820 Y31.377 Z-2.000 F300
G1 X-48.947 Y31.435 Z-2.000 F300
G1 X-49.081 Y31.479 Z-2.000 F300
G1 X-49.218 Y31.507 Z-2.000 F300
G1 X-49.358 Y31.519 Z-2.000 F300
G1 X-49.498 Y31.516 Z-2.000 F300
G1 X-49.637 Y31.497 Z-2.000 F300
G1 X-49.773 Y31.463 Z-2.000 F300
G1 X-49.904 Y31.414 Z-2.000 F300
G1 X-50.029 Y31.350 Z-2.000 F300
G1 X-50.146 Y31.273 Z-2.000 F300
G1 X-50.253 Y31.183 Z-2.000 F300
G1 X-50.350 Y31.082 Z-2.000 F300
G1 X-50.435 Y30.971 Z-2.000 F300
G1 X-50.507 Y30.850 Z-2.000 F300
G1 X-50.565 Y30.723 Z-2.000 F300
G1 X-50.609 Y30.589 Z-2.000 F300
G1 X-50.637 Y30.452 Z-2.000 F300
G1 X-50.649 Y30.312 Z-2.000 F300
G1 X-50.646 Y30.172 Z-2.000 F300
G1 X-50.627 Y30.033 Z-2.000 F300
G1 X-50.593 Y29.897 Z-2.000 F300
G1 X-50.544 Y29.766 Z-2.000 F300
G1 X-50.480 Y29.641 Z-2.000 F300
G1 X-50.403 Y29.524 Z-2.000 F300
G1 X-50.313 Y29.417 Z-2.000 F300
G1 X-50.212 Y29.320 Z-2.000 F300
G1 X-50.101 Y29.235 Z-2.000 F300
G1 X-49.980 Y29.163 Z-2.000 F300
G1 X-49.853 Y29.105 Z-2.000 F300
G1 X-49.719 Y29.061 Z-2.000 F300
G1 X-49.582 Y29.033 Z-2.000 F300
G1 X-49.442 Y29.021 Z-2.000 F300
G1 X-49.302 Y29.024 Z-2.000 F300
G1 X-49.163 Y29.043 Z-2.000 F300
G1 X-49.027 Y29.077 Z-2.000 F300
G1 X-48.896 Y29.126 Z-2.000 F300
G1 X-48.771 Y29.190 Z-2.000 F300
G1 X-48.654 Y29.267 Z-2.000 F300
G1 X-48.547 Y29.357 Z-2.000 F300
G1 X-48.450 Y29.458 Z-2.000 F300
G1 X-48.365 Y29.569 Z-2.000 F300
G1 X-48.293 Y29.690 Z-2.000 F300
G1 X-48.235 Y29.817 Z-2.000 F300
G1 X-48.191 Y29.951 Z-2.000 F300
G1 X-48.163 Y30.088 Z-2.000 F300
G1 X-48.151 Y30.228 Z-2.000 F300
G1 X-48.154 Y30.368 Z-2.000 F300
G1 X-48.173 Y30.507 Z-2.000 F300
G1 X-48.189 Y30.551 Z-2.000 F3000
G1 X-48.217 Y30.588 Z-2.000 F3000
G1 X-48.256 Y30.614 Z-2.000 F3000
G1 X-48.301 Y30.627 Z-2.000 F3000
G1 X-48.348 Y30.625 Z-2.000 F3000
G1 X-48.496 Y30.597 Z-2.000 F3000
G1 X-48.541 Y30.588 Z-1.993 F3000
G1 X-48.582 Y30.580 Z-1.971 F3000
G1 X-48.615 Y30.574 Z-1.938 F3000
G1 X-48.636 Y30.570 Z-1.896 F3000
G1 X-48.643 Y30.569 Z-1.850 F3000
G0 X-48.643 Y30.569 Z5.000
G0 X-48.586 Y30.274 Z5.000
G1 X-48.586 Y30.274 Z0.000 F150
G1 X-48.586 Y30.274 Z-2.850 F150
G1 X-48.579 Y30.276 Z-2.896 F300
G1 X-48.558 Y30.280 Z-2.938 F300
G1 X-48.525 Y30.286 Z-2.971 F300
G1 X-48.484 Y30.294 Z-2.993 F300
G1 X-48.439 Y30.302 Z-3.000 F300
G1 X-48.291 Y30.331 Z-3.000 F300
G1 X-48.247 Y30.347 Z-3.000 F300
G1 X-48.210 Y30.376 Z-3.000 F300
G1 X-48.184 Y30.415 Z-3.000 F300
G1 X-48.171 Y30.460 Z-3.000 F300
G1 X-48.173 Y30.507 Z-3.000 F300
G1 X-48.207 Y30.643 Z-3.000 F300
G1 X-48.256 Y30.774 Z-3.000 F300
G1 X-48.320 Y30.899 Z-3.000 F300
G1 X-48.397 Y31.016 Z-3.000 F300
G1 X-48.487 Y31.123 Z-3.000 F300
G1 X-48.588 Y31.220 Z-3.000 F300
G1 X-48.699 Y31.305 Z-3.000 F300
G1 X-48.820 Y31.377 Z-3.000 F300
G1 X-48.947 Y31.435 Z-3.000 F300
G1 X-49.081 Y31.479 Z-3.000 F300
G1 X-49.218 Y31.507 Z-3.000 F300
G1 X-49.358 Y31.519 Z-3.000 F300
G1 X-49.498 Y31.516 Z-3.000 F300
G1 X-49.637 Y31.497 Z-3.000 F300
G1 X-49.773 Y31.463 Z-3.000 F300
G1 X-49.904 Y31.414 Z-3.000 F300
G1 X-50.029 Y31.350 Z-3.000 F300
G1 X-50.146 Y31.273 Z-3.000 F300
G1 X-50.253 Y31.183 Z-3.000 F300
G1 X-50.350 Y31.082 Z-3.000 F300
G1 X-50.435 Y30.971 Z-3.000 F300
G1 X-50.507 Y30.850 Z-3.000 F300
G1 X-50.565 Y30.723 Z-3.000 F300
G1 X-50.609 Y30.589 Z-3.000 F300
G1 X-50.637 Y30.452 Z-3.000 F300
G1 X-50.649 Y30.312 Z-3.000 F300
G1 X-50.646 Y30.172 Z-3.000 F300
G1 X-50.627 Y30.033 Z-3.000 F300
G1 X-50.593 Y29.897 Z-3.000 F300
G1 X-50.544 Y29.766 Z-3.000 F300
G1 X-50.480 Y29.641 Z-3.000 F300
G1 X-50.403 Y29.524 Z-3.000 F300
G1 X-50.313 Y29.417 Z-3.000 F300
G1 X-50.212 Y29.320 Z-3.000 F300
G1 X-50.101 Y29.235 Z-3.000 F300
G1 X-49.980 Y29.163 Z-3.000 F300
G1 X-49.853 Y29.105 Z-3.000 F300
G1 X-49.719 Y29.061 Z-3.000 F300
G1 X-49.582 Y29.033 Z-3.000 F300
G1 X-49.442 Y29.021 Z-3.000 F300
G1 X-49.302 Y29.024 Z-3.000 F300
G1 X-49.163 Y29.043 Z-3.000 F300
G1 X-49.027 Y29.077 Z-3.000 F300
G1 X-48.896 Y29.126 Z-3.000 F300
G1 X-48.771 Y29.190 Z-3.000 F300
G1 X-48.654 Y29.267 Z-3.000 F300
G1 X-48.547 Y29.357 Z-3.000 F300
G1 X-48.450 Y29.458 Z-3.000 F300
G1 X-48.365 Y29.569 Z-3.000 F300
G1 X-48.293 Y29.690 Z-3.000 F300
G1 X-48.235 Y29.817 Z-3.000 F300
G1 X-48.191 Y29.951 Z-3.000 F300
G1 X-48.163 Y30.088 Z-3.000 F300
G1 X-48.151 Y30.228 Z-3.000 F300
G1 X-48.154 Y30.368 Z-3.000 F300
G1 X-48.173 Y30.507 Z-3.000 F300
G1 X-48.189 Y30.551 Z-3.000 F3000
G1 X-48.217 Y30.588 Z-3.000 F3000
G1 X-48.256 Y30.614 Z-3.000 F3000
G1 X-48.301 Y30.627 Z-3.000 F3000
G1 X-48.348 Y30.625 Z-3.000 F3000
G1 X-48.496 Y30.597 Z-3.000 F3000
G1 X-48.541 Y30.588 Z-2.993 F3000
G1 X-48.582 Y30.580 Z-2.971 F3000
G1 X-48.615 Y30.574 Z-2.938 F3000
G1 X-48.636 Y30.570 Z-2.896 F3000
G1 X-48.643 Y30.569 Z-2.850 F3000
G0 X-48.643 Y30.569 Z5.000
G0 X-48.586 Y30.274 Z5.000
G1 X-48.586 Y30.274 Z-1.000 F150
G1 X-48.586 Y30.274 Z-3.850 F150
G1 X-48.579 Y30.276 Z-3.896 F300
G1 X-48.558 Y30.280 Z-3.938 F300
G1 X-48.525 Y30.286 Z-3.971 F300
G1 X-48.484 Y30.294 Z-3.993 F300
G1 X-48.439 Y30.302 Z-4.000 F300
G1 X-48.291 Y30.331 Z-4.000 F300
G1 X-48.247 Y30.347 Z-4.000 F300
G1 X-48.210 Y30.376 Z-4.000 F300
G1 X-48.184 Y30.415 Z-4.000 F300
G1 X-48.171 Y30.460 Z-4.000 F300
G1 X-48.173 Y30.507 Z-4.000 F300
G1 X-48.207 Y30.643 Z-4.000 F300
G1 X-48.256 Y30.774 Z-4.000 F300
G1 X-48.320 Y30.899 Z-4.000 F300
G1 X-48.397 Y31.016 Z-4.000 F300
G1 X-48.487 Y31.123 Z-4.000 F300
G1 X-48.588 Y31.220 Z-4.000 F300
G1 X-48.699 Y31.305 Z-4.000 F300
G1 X-48.820 Y31.377 Z-4.000 F300
G1 X-48.947 Y31.435 Z-4.000 F300
G1 X-49.081 Y31.479 Z-4.000 F300
G1 X-49.218 Y31.507 Z-4.000 F300
G1 X-49.358 Y31.519 Z-4.000 F300
G1 X-49.498 Y31.516 Z-4.000 F300
G1 X-49.637 Y31.497 Z-4.000 F300
G1 X-49.773 Y31.463 Z-4.000 F300
G1 X-49.904 Y31.414 Z-4.000 F300
G1 X-50.029 Y31.350 Z-4.000 F300
G1 X-50.146 Y31.273 Z-4.000 F300
G1 X-50.253 Y31.183 Z-4.000 F300
G1 X-50.350 Y31.082 Z-4.000 F300
G1 X-50.435 Y30.971 Z-4.000 F300
G1 X-50.507 Y30.850 Z-4.000 F300
G1 X-50.565 Y30.723 Z-4.000 F300
G1 X-50.609 Y30.589 Z-4.000 F300
G1 X-50.637 Y30.452 Z-4.000 F300
G1 X-50.649 Y30.312 Z-4.000 F300
G1 X-50.646 Y30.172 Z-4.000 F300
G1 X-50.627 Y30.033 Z-4.000 F300
G1 X-50.593 Y29.897 Z-4.000 F300
G1 X-50.544 Y29.766 Z-4.000 F300
G1 X-50.480 Y29.641 Z-4.000 F300
G1 X-50.403 Y29.524 Z-4.000 F300
G1 X-50.313 Y29.417 Z-4.000 F300
G1 X-50.212 Y29.320 Z-4.000 F300
G1 X-50.101 Y29.235 Z-4.000 F300
G1 X-49.980 Y29.163 Z-4.000 F300
G1 X-49.853 Y29.105 Z-4.000 F300
G1 X-49.719 Y29.061 Z-4.000 F300
G1 X-49.582 Y29.033 Z-4.000 F300
G1 X-49.442 Y29.021 Z-4.000 F300
G1 X-49.302 Y29.024 Z-4.000 F300
G1 X-49.163 Y29.043 Z-4.000 F300
G1 X-49.027 Y29.077 Z-4.000 F300
G1 X-48.896 Y29.126 Z-4.000 F300
G1 X-48.771 Y29.190 Z-4.000 F300
G1 X-48.654 Y29.267 Z-4.000 F300
G1 X-48.547 Y29.357 Z-4.000 F300
G1 X-48.450 Y29.458 Z-4.000 F300
G1 X-48.365 Y29.569 Z-4.000 F300
G1 X-48.293 Y29.690 Z-4.000 F300
G1 X-48.235 Y29.817 Z-4.000 F300
G1 X-48.191 Y29.951 Z-4.000 F300
G1 X-48.163 Y30.088 Z-4.000 F300
G1 X-48.151 Y30.228 Z-4.000 F300
G1 X-48.154 Y30.368 Z-4.000 F300
G1 X-48.173 Y30.507 Z-4.000 F300
G1 X-48.189 Y30.551 Z-4.000 F3000
G1 X-48.217 Y30.588 Z-4.000 F3000
G1 X-48.256 Y30.614 Z-4.000 F3000
G1 X-48.301 Y30.627 Z-4.000 F3000
G1 X-48.348 Y30.625 Z-4.000 F3000
G1 X-48.496 Y30.597 Z-4.000 F3000
G1 X-48.541 Y30.588 Z-3.993 F3000
G1 X-48.582 Y30.580 Z-3.971 F3000
G1 X-48.615 Y30.574 Z-3.938 F3000
G1 X-48.636 Y30.570 Z-3.896 F3000
G1 X-48.643 Y30.569 Z-3.850 F3000
G0 X-48.643 Y30.569 Z5.000
G0 X-48.586 Y30.274 Z5.000
G1 X-48.586 Y30.274 Z-2.000 F150
G1 X-48.586 Y30.274 Z-4.350 F150
G1 X-48.579 Y30.276 Z-4.396 F300
G1 X-48.558 Y30.280 Z-4.438 F300
G1 X-48.525 Y30.286 Z-4.471 F300
G1 X-48.484 Y30.294 Z-4.493 F300
G1 X-48.439 Y30.302 Z-4.500 F300
G1 X-48.291 Y30.331 Z-4.500 F300
G1 X-48.247 Y30.347 Z-4.500 F300
G1 X-48.210 Y30.376 Z-4.500 F300
G1 X-48.184 Y30.415 Z-4.500 F300
G1 X-48.171 Y30.460 Z-4.500 F300
G1 X-48.173 Y30.507 Z-4.500 F300
G1 X-48.207 Y30.643 Z-4.500 F300
G1 X-48.256 Y30.774 Z-4.500 F300
G1 X-48.320 Y30.899 Z-4.500 F300
G1 X-48.397 Y31.016 Z-4.500 F300
G1 X-48.487 Y31.123 Z-4.500 F300
G1 X-48.588 Y31.220 Z-4.500 F300
G1 X-48.699 Y31.305 Z-4.500 F300
G1 X-48.820 Y31.377 Z-4.500 F300
G1 X-48.947 Y31.435 Z-4.500 F300
G1 X-49.081 Y31.479 Z-4.500 F300
G1 X-49.218 Y31.507 Z-4.500 F300
G1 X-49.358 Y31.519 Z-4.500 F300
G1 X-49.498 Y31.516 Z-4.500 F300
G1 X-49.637 Y31.497 Z-4.500 F300
G1 X-49.773 Y31.463 Z-4.500 F300
G1 X-49.904 Y31.414 Z-4.500 F300
G1 X-50.029 Y31.350 Z-4.500 F300
G1 X-50.146 Y31.273 Z-4.500 F300
G1 X-50.253 Y31.183 Z-4.500 F300
G1 X-50.350 Y31.082 Z-4.500 F300
G1 X-50.435 Y30.971 Z-4.500 F300
G1 X-50.507 Y30.850 Z-4.500 F300
G1 X-50.565 Y30.723 Z-4.500 F300
G1 X-50.609 Y30.589 Z-4.500 F300
G1 X-50.637 Y30.452 Z-4.500 F300
G1 X-50.649 Y30.312 Z-4.500 F300
G1 X-50.646 Y30.172 Z-4.500 F300
G1 X-50.627 Y30.033 Z-4.500 F300
G1 X-50.593 Y29.897 Z-4.500 F300
G1 X-50.544 Y29.766 Z-4.500 F300
G1 X-50.480 Y29.641 Z-4.500 F300
G1 X-50.403 Y29.524 Z-4.500 F300
G1 X-50.313 Y29.417 Z-4.500 F300
G1 X-50.212 Y29.320 Z-4.500 F300
G1 X-50.101 Y29.235 Z-4.500 F300
G1 X-49.980 Y29.163 Z-4.500 F300
G1 X-49.853 Y29.105 Z-4.500 F300
G1 X-49.719 Y29.061 Z-4.500 F300
G1 X-49.582 Y29.033 Z-4.500 F300
G1 X-49.442 Y29.021 Z-4.500 F300
G1 X-49.302 Y29.024 Z-4.500 F300
G1 X-49.163 Y29.043 Z-4.500 F300
G1 X-49.027 Y29.077 Z-4.500 F300
G1 X-48.896 Y29.126 Z-4.500 F300
G1 X-48.771 Y29.190 Z-4.500 F300
G1 X-48.654 Y29.267 Z-4.500 F300
G1 X-48.547 Y29.357 Z-4.500 F300
G1 X-48.450 Y29.458 Z-4.500 F300
G1 X-48.365 Y29.569 Z-4.500 F300
G1 X-48.293 Y29.690 Z-4.500 F300
G1 X-48.235 Y29.817 Z-4.500 F300
G1 X-48.191 Y29.951 Z-4.500 F300
G1 X-48.163 Y30.088 Z-4.500 F300
G1 X-48.151 Y30.228 Z-4.500 F300
G1 X-48.154 Y30.368 Z-4.500 F300
G1 X-48.173 Y30.507 Z-4.500 F300
G1 X-48.189 Y30.551 Z-4.500 F3000
G1 X-48.217 Y30.588 Z-4.500 F3000
G1 X-48.256 Y30.614 Z-4.500 F3000
G1 X-48.301 Y30.627 Z-4.500 F3000
G1 X-48.348 Y30.625 Z-4.500 F3000
G1 X-48.496 Y30.597 Z-4.500 F3000
G1 X-48.541 Y30.588 Z-4.493 F3000
G1 X-48.582 Y30.580 Z-4.471 F3000
G1 X-48.615 Y30.574 Z-4.438 F3000
G1 X-48.636 Y30.570 Z-4.396 F3000
G1 X-48.643 Y30.569 Z-4.350 F3000
G0 X-48.643 Y30.569 Z5.000
G0 X-48.600 Y-30.420 Z5.000
G1 X-48.600 Y-30.420 Z2.000 F150
G1 X-48.600 Y-30.420 Z-0.850 F150
G1 X-48.593 Y-30.420 Z-0.896 F300
G1 X-48.571 Y-30.420 Z-0.938 F300
G1 X-48.538 Y-30.420 Z-0.971 F300
G1 X-48.496 Y-30.420 Z-0.993 F300
G1 X-48.450 Y-30.420 Z-1.000 F300
G1 X-48.300 Y-30.420 Z-1.000 F300
G1 X-48.254 Y-30.413 Z-1.000 F300
G1 X-48.212 Y-30.391 Z-1.000 F300
G1 X-48.179 Y-30.358 Z-1.000 F300
G1 X-48.157 Y-30.316 Z-1.000 F300
G1 X-48.150 Y-30.270 Z-1.000 F300
G1 X-48.158 Y-30.130 Z-1.000 F300
G1 X-48.181 Y-29.992 Z-1.000 F300
G1 X-48.220 Y-29.857 Z-1.000 F300
G1 X-48.274 Y-29.728 Z-1.000 F300
G1 X-48.342 Y-29.605 Z-1.000 F300
G1 X-48.423 Y-29.491 Z-1.000 F300
G1 X-48.516 Y-29.386 Z-1.000 F300
G1 X-48.621 Y-29.293 Z-1.000 F300
G1 X-48.735 Y-29.212 Z-1.000 F300
G1 X-48.858 Y-29.144 Z-1.000 F300
G1 X-48.987 Y-29.090 Z-1.000 F300
G1 X-49.122 Y-29.051 Z-1.000 F300
G1 X-49.260 Y-29.028 Z-1.000 F300
G1 X-49.400 Y-29.020 Z-1.000 F300
G1 X-49.540 Y-29.028 Z-1.000 F300
G1 X-49.678 Y-29.051 Z-1.000 F300
G1 X-49.813 Y-29.090 Z-1.000 F300
G1 X-49.942 Y-29.144 Z-1.000 F300
G1 X-50.065 Y-29.212 Z-1.000 F300
G1 X-50.179 Y-29.293 Z-1.000 F300
G1 X-50.284 Y-29.386 Z-1.000 F300
G1 X-50.377 Y-29.491 Z-1.000 F300
G1 X-50.458 Y-29.605 Z-1.000 F300
G1 X-50.526 Y-29.728 Z-1.000 F300
G1 X-50.580 Y-29.857 Z-1.000 F300
G1 X-50.619 Y-29.992 Z-1.000 F300
G1 X-50.642 Y-30.130 Z-1.000 F300
G1 X-50.650 Y-30.270 Z-1.000 F300
G1 X-50.642 Y-30.410 Z-1.000 F300
G1 X-50.619 Y-30.548 Z-1.000 F300
G1 X-50.580 Y-30.683 Z-1.000 F300
G1 X-50.526 Y-30.812 Z-1.000 F300
G1 X-50.458 Y-30.935 Z-1.000 F300
G1 X-50.377 Y-31.049 Z-1.000 F300
G1 X-50.284 Y-31.154 Z-1.000 F300
G1 X-50.179 Y-31.247 Z-1.000 F300
G1 X-50.065 Y-31.328 Z-1.000 F300
G1 X-49.942 Y-31.396 Z-1.000 F300
G1 X-49.813 Y-31.450 Z-1.000 F300
G1 X-49.678 Y-31.489 Z-1.000 F300
G1 X-49.540 Y-31.512 Z-1.000 F300
G1 X-49.400 Y-31.520 Z-1.000 F300
G1 X-49.260 Y-31.512 Z-1.000 F300
G1 X-49.122 Y-31.489 Z-1.000 F300
G1 X-48.987 Y-31.450 Z-1.000 F300
G1 X-48.858 Y-31.396 Z-1.000 F300
G1 X-48.735 Y-31.328 Z-1.000 F300
G1 X-48.621 Y-31.247 Z-1.000 F300
G1 X-48.516 Y-31.154 Z-1.000 F300
G1 X-48.423 Y-31.049 Z-1.000 F300
G1 X-48.342 Y-30.935 Z-1.000 F300
G1 X-48.274 Y-30.812 Z-1.000 F300
G1 X-48.220 Y-30.683 Z-1.000 F300
G1 X-48.181 Y-30.548 Z-1.000 F300
G1 X-48.158 Y-30.410 Z-1.000 F300
G1 X-48.150 Y-30.270 Z-1.000 F300
G1 X-48.157 Y-30.224 Z-1.000 F3000
G1 X-48.179 Y-30.182 Z-1.000 F3000
G1 X-48.212 Y-30.149 Z-1.000 F3000
G1 X-48.254 Y-30.127 Z-1.000 F3000
G1 X-48.300 Y-30.120 Z-1.000 F3000
G1 X-48.450 Y-30.120 Z-1.000 F3000
G1 X-48.496 Y-30.120 Z-0.993 F3000
G1 X-48.538 Y-30.120 Z-0.971 F3000
G1 X-48.571 Y-30.120 Z-0.938 F3000
G1 X-48.593 Y-30.120 Z-0.896 F3000
G1 X-48.600 Y-30.120 Z-0.850 F3000
G0 X-48.600 Y-30.120 Z5.000
G0 X-48.600 Y-30.420 Z5.000
G1 X-48.600 Y-30.420 Z1.000 F150
G1 X-48.600 Y-30.420 Z-1.850 F150
G1 X-48.593 Y-30.420 Z-1.896 F300
G1 X-48.571 Y-30.420 Z-1.938 F300
G1 X-48.538 Y-30.420 Z-1.971 F300
G1 X-48.496 Y-30.420 Z-1.993 F300
G1 X-48.450 Y-30.420 Z-2.000 F300
G1 X-48.300 Y-30.420 Z-2.000 F300
G1 X-48.254 Y-30.413 Z-2.000 F300
G1 X-48.212 Y-30.391 Z-2.000 F300
G1 X-48.179 Y-30.358 Z-2.000 F300
G1 X-48.157 Y-30.316 Z-2.000 F300
G1 X-48.150 Y-30.270 Z-2.000 F300
G1 X-48.158 Y-30.130 Z-2.000 F300
G1 X-48.181 Y-29.992 Z-2.000 F300
G1 X-48.220 Y-29.857 Z-2.000 F300
G1 X-48.274 Y-29.728 Z-2.000 F300
G1 X-48.342 Y-29.605 Z-2.000 F300
G1 X-48.423 Y-29.491 Z-2.000 F300
G1 X-48.516 Y-29.386 Z-2.000 F300
G1 X-48.621 Y-29.293 Z-2.000 F300
G1 X-48.735 Y-29.212 Z-2.000 F300
G1 X-48.858 Y-29.144 Z-2.000 F300
G1 X-48.987 Y-29.090 Z-2.000 F300
G1 X-49.122 Y-29.051 Z-2.000 F300
G1 X-49.260 Y-29.028 Z-2.000 F300
G1 X-49.400 Y-29.020 Z-2.000 F300
G1 X-49.540 Y-29.028 Z-2.000 F300
G1 X-49.678 Y-29.051 Z-2.000 F300
G1 X-49.813 Y-29.090 Z-2.000 F300
G1 X-49.942 Y-29.144 Z-2.000 F300
G1 X-50.065 Y-29.212 Z-2.000 F300
G1 X-50.179 Y-29.293 Z-2.000 F300
G1 X-50.284 Y-29.386 Z-2.000 F300
G1 X-50.377 Y-29.491 Z-2.000 F300
G1 X-50.458 Y-29.605 Z-2.000 F300
G1 X-50.526 Y-29.728 Z-2.000 F300
G1 X-50.580 Y-29.857 Z-2.000 F300
G1 X-50.619 Y-29.992 Z-2.000 F300
G1 X-50.642 Y-30.130 Z-2.000 F300
G1 X-50.650 Y-30.270 Z-2.000 F300
G1 X-50.642 Y-30.410 Z-2.000 F300
G1 X-50.619 Y-30.548 Z-2.000 F300
G1 X-50.580 Y-30.683 Z-2.000 F300
G1 X-50.526 Y-30.812 Z-2.000 F300
G1 X-50.458 Y-30.935 Z-2.000 F300
G1 X-50.377 Y-31.049 Z-2.000 F300
G1 X-50.284 Y-31.154 Z-2.000 F300
G1 X-50.179 Y-31.247 Z-2.000 F300
G1 X-50.065 Y-31.328 Z-2.000 F300
G1 X-49.942 Y-31.396 Z-2.000 F300
G1 X-49.813 Y-31.450 Z-2.000 F300
G1 X-49.678 Y-31.489 Z-2.000 F300
G1 X-49.540 Y-31.512 Z-2.000 F300
G1 X-49.400 Y-31.520 Z-2.000 F300
G1 X-49.260 Y-31.512 Z-2.000 F300
G1 X-49.122 Y-31.489 Z-2.000 F300
G1 X-48.987 Y-31.450 Z-2.000 F300
G1 X-48.858 Y-31.396 Z-2.000 F300
G1 X-48.735 Y-31.328 Z-2.000 F300
G1 X-48.621 Y-31.247 Z-2.000 F300
G1 X-48.516 Y-31.154 Z-2.000 F300
G1 X-48.423 Y-31.049 Z-2.000 F300
G1 X-48.342 Y-30.935 Z-2.000 F300
G1 X-48.274 Y-30.812 Z-2.000 F300
G1 X-48.220 Y-30.683 Z-2.000 F300
G1 X-48.181 Y-30.548 Z-2.000 F300
G1 X-48.158 Y-30.410 Z-2.000 F300
G1 X-48.150 Y-30.270 Z-2.000 F300
G1 X-48.157 Y-30.224 Z-2.000 F3000
G1 X-48.179 Y-30.182 Z-2.000 F3000
G1 X-48.212 Y-30.149 Z-2.000 F3000
G1 X-48.254 Y-30.127 Z-2.000 F3000
G1 X-48.300 Y-30.120 Z-2.000 F3000
G1 X-48.450 Y-30.120 Z-2.000 F3000
G1 X-48.496 Y-30.120 Z-1.993 F3000
G1 X-48.538 Y-30.120 Z-1.971 F3000
G1 X-48.571 Y-30.120 Z-1.938 F3000
G1 X-48.593 Y-30.120 Z-1.896 F3000
G1 X-48.600 Y-30.120 Z-1.850 F3000
G0 X-48.600 Y-30.120 Z5.000
G0 X-48.600 Y-30.420 Z5.000
G1 X-48.600 Y-30.420 Z0.000 F150
G1 X-48.600 Y-30.420 Z-2.850 F150
G1 X-48.593 Y-30.420 Z-2.896 F300
G1 X-48.571 Y-30.420 Z-2.938 F300
G1 X-48.538 Y-30.420 Z-2.971 F300
G1 X-48.496 Y-30.420 Z-2.993 F300
G1 X-48.450 Y-30.420 Z-3.000 F300
G1 X-48.300 Y-30.420 Z-3.000 F300
G1 X-48.254 Y-30.413 Z-3.000 F300
G1 X-48.212 Y-30.391 Z-3.000 F300
G1 X-48.179 Y-30.358 Z-3.000 F300
G1 X-48.157 Y-30.316 Z-3.000 F300
G1 X-48.150 Y-30.270 Z-3.000 F300
G1 X-48.158 Y-30.130 Z-3.000 F300
G1 X-48.181 Y-29.992 Z-3.000 F300
G1 X-48.220 Y-29.857 Z-3.000 F300
G1 X-48.274 Y-29.728 Z-3.000 F300
G1 X-48.342 Y-29.605 Z-3.000 F300
G1 X-48.423 Y-29.491 Z-3.000 F300
G1 X-48.516 Y-29.386 Z-3.000 F300
G1 X-48.621 Y-29.293 Z-3.000 F300
G1 X-48.735 Y-29.212 Z-3.000 F300
G1 X-48.858 Y-29.144 Z-3.000 F300
G1 X-48.987 Y-29.090 Z-3.000 F300
G1 X-49.122 Y-29.051 Z-3.000 F300
G1 X-49.260 Y-29.028 Z-3.000 F300
G1 X-49.400 Y-29.020 Z-3.000 F300
G1 X-49.540 Y-29.028 Z-3.000 F300
G1 X-49.678 Y-29.051 Z-3.000 F300
G1 X-49.813 Y-29.090 Z-3.000 F300
G1 X-49.942 Y-29.144 Z-3.000 F300
G1 X-50.065 Y-29.212 Z-3.000 F300
G1 X-50.179 Y-29.293 Z-3.000 F300
G1 X-50.284 Y-29.386 Z-3.000 F300
G1 X-50.377 Y-29.491 Z-3.000 F300
G1 X-50.458 Y-29.605 Z-3.000 F300
G1 X-50.526 Y-29.728 Z-3.000 F300
G1 X-50.580 Y-29.857 Z-3.000 F300
G1 X-50.619 Y-29.992 Z-3.000 F300
G1 X-50.642 Y-30.130 Z-3.000 F300
G1 X-50.650 Y-30.270 Z-3.000 F300
G1 X-50.642 Y-30.410 Z-3.000 F300
G1 X-50.619 Y-30.548 Z-3.000 F300
G1 X-50.580 Y-30.683 Z-3.000 F300
G1 X-50.526 Y-30.812 Z-3.000 F300
G1 X-50.458 Y-30.935 Z-3.000 F300
G1 X-50.377 Y-31.049 Z-3.000 F300
G1 X-50.284 Y-31.154 Z-3.000 F300
G1 X-50.179 Y-31.247 Z-3.000 F300
G1 X-50.065 Y-31.328 Z-3.000 F300
G1 X-49.942 Y-31.396 Z-3.000 F300
G1 X-49.813 Y-31.450 Z-3.000 F300
G1 X-49.678 Y-31.489 Z-3.000 F300
G1 X-49.540 Y-31.512 Z-3.000 F300
G1 X-49.400 Y-31.520 Z-3.000 F300
G1 X-49.260 Y-31.512 Z-3.000 F300
G1 X-49.122 Y-31.489 Z-3.000 F300
G1 X-48.987 Y-31.450 Z-3.000 F300
G1 X-48.858 Y-31.396 Z-3.000 F300
G1 X-48.735 Y-31.328 Z-3.000 F300
G1 X-48.621 Y-31.247 Z-3.000 F300
G1 X-48.516 Y-31.154 Z-3.000 F300
G1 X-48.423 Y-31.049 Z-3.000 F300
G1 X-48.342 Y-30.935 Z-3.000 F300
G1 X-48.274 Y-30.812 Z-3.000 F300
G1 X-48.220 Y-30.683 Z-3.000 F300
G1 X-48.181 Y-30.548 Z-3.000 F300
G1 X-48.158 Y-30.410 Z-3.000 F300
G1 X-48.150 Y-30.270 Z-3.000 F300
G1 X-48.157 Y-30.224 Z-3.000 F3000
G1 X-48.179 Y-30.182 Z-3.000 F3000
G1 X-48.212 Y-30.149 Z-3.000 F3000
G1 X-48.254 Y-30.127 Z-3.000 F3000
G1 X-48.300 Y-30.120 Z-3.000 F3000
G1 X-48.450 Y-30.120 Z-3.000 F3000
G1 X-48.496 Y-30.120 Z-2.993 F3000
G1 X-48.538 Y-30.120 Z-2.971 F3000
G1 X-48.571 Y-30.120 Z-2.938 F3000
G1 X-48.593 Y-30.120 Z-2.896 F3000
G1 X-48.600 Y-30.120 Z-2.850 F3000
G0 X-48.600 Y-30.120 Z5.000
G0 X-48.600 Y-30.420 Z5.000
G1 X-48.600 Y-30.420 Z-1.000 F150
G1 X-48.600 Y-30.420 Z-3.850 F150
G1 X-48.593 Y-30.420 Z-3.896 F300
G1 X-48.571 Y-30.420 Z-3.938 F300
G1 X-48.538 Y-30.420 Z-3.971 F300
G1 X-48.496 Y-30.420 Z-3.993 F300
G1 X-48.450 Y-30.420 Z-4.000 F300
G1 X-48.300 Y-30.420 Z-4.000 F300
G1 X-48.254 Y-30.413 Z-4.000 F300
G1 X-48.212 Y-30.391 Z-4.000 F300
G1 X-48.179 Y-30.358 Z-4.000 F300
G1 X-48.157 Y-30.316 Z-4.000 F300
G1 X-48.150 Y-30.270 Z-4.000 F300
G1 X-48.158 Y-30.130 Z-4.000 F300
G1 X-48.181 Y-29.992 Z-4.000 F300
G1 X-48.220 Y-29.857 Z-4.000 F300
G1 X-48.274 Y-29.728 Z-4.000 F300
G1 X-48.342 Y-29.605 Z-4.000 F300
G1 X-48.423 Y-29.491 Z-4.000 F300
G1 X-48.516 Y-29.386 Z-4.000 F300
G1 X-48.621 Y-29.293 Z-4.000 F300
G1 X-48.735 Y-29.212 Z-4.000 F300
G1 X-48.858 Y-29.144 Z-4.000 F300
G1 X-48.987 Y-29.090 Z-4.000 F300
G1 X-49.122 Y-29.051 Z-4.000 F300
G1 X-49.260 Y-29.028 Z-4.000 F300
G1 X-49.400 Y-29.020 Z-4.000 F300
G1 X-49.540 Y-29.028 Z-4.000 F300
G1 X-49.678 Y-29.051 Z-4.000 F300
G1 X-49.813 Y-29.090 Z-4.000 F300
G1 X-49.942 Y-29.144 Z-4.000 F300
G1 X-50.065 Y-29.212 Z-4.000 F300
G1 X-50.179 Y-29.293 Z-4.000 F300
G1 X-50.284 Y-29.386 Z-4.000 F300
G1 X-50.377 Y-29.491 Z-4.000 F300
G1 X-50.458 Y-29.605 Z-4.000 F300
G1 X-50.526 Y-29.728 Z-4.000 F300
G1 X-50.580 Y-29.857 Z-4.000 F300
G1 X-50.619 Y-29.992 Z-4.000 F300
G1 X-50.642 Y-30.130 Z-4.000 F300
G1 X-50.650 Y-30.270 Z-4.000 F300
G1 X-50.642 Y-30.410 Z-4.000 F300
G1 X-50.619 Y-30.548 Z-4.000 F300
G1 X-50.580 Y-30.683 Z-4.000 F300
G1 X-50.526 Y-30.812 Z-4.000 F300
G1 X-50.458 Y-30.935 Z-4.000 F300
G1 X-50.377 Y-31.049 Z-4.000 F300
G1 X-50.284 Y-31.154 Z-4.000 F300
G1 X-50.179 Y-31.247 Z-4.000 F300
G1 X-50.065 Y-31.328 Z-4.000 F300
G1 X-49.942 Y-31.396 Z-4.000 F300
G1 X-49.813 Y-31.450 Z-4.000 F300
G1 X-49.678 Y-31.489 Z-4.000 F300
G1 X-49.540 Y-31.512 Z-4.000 F300
G1 X-49.400 Y-31.520 Z-4.000 F300
G1 X-49.260 Y-31.512 Z-4.000 F300
G1 X-49.122 Y-31.489 Z-4.000 F300
G1 X-48.987 Y-31.450 Z-4.000 F300
G1 X-48.858 Y-31.396 Z-4.000 F300
G1 X-48.735 Y-31.328 Z-4.000 F300
G1 X-48.621 Y-31.247 Z-4.000 F300
G1 X-48.516 Y-31.154 Z-4.000 F300
G1 X-48.423 Y-31.049 Z-4.000 F300
G1 X-48.342 Y-30.935 Z-4.000 F300
G1 X-48.274 Y-30.812 Z-4.000 F300
G1 X-48.220 Y-30.683 Z-4.000 F300
G1 X-48.181 Y-30.548 Z-4.000 F300
G1 X-48.158 Y-30.410 Z-4.000 F300
G1 X-48.150 Y-30.270 Z-4.000 F300
G1 X-48.157 Y-30.224 Z-4.000 F3000
G1 X-48.179 Y-30.182 Z-4.000 F3000
G1 X-48.212 Y-30.149 Z-4.000 F3000
G1 X-48.254 Y-30.127 Z-4.000 F3000
G1 X-48.300 Y-30.120 Z-4.000 F3000
G1 X-48.450 Y-30.120 Z-4.000 F3000
G1 X-48.496 Y-30.120 Z-3.993 F3000
G1 X-48.538 Y-30.120 Z-3.971 F3000
G1 X-48.571 Y-30.120 Z-3.938 F3000
G1 X-48.593 Y-30.120 Z-3.896 F3000
G1 X-48.600 Y-30.120 Z-3.850 F3000
G0 X-48.600 Y-30.120 Z5.000
G0 X-48.600 Y-30.420 Z5.000
G1 X-48.600 Y-30.420 Z-2.000 F150
G1 X-48.600 Y-30.420 Z-4.350 F150
G1 X-48.593 Y-30.420 Z-4.396 F300
G1 X-48.571 Y-30.420 Z-4.438 F300
G1 X-48.538 Y-30.420 Z-4.471 F300
G1 X-48.496 Y-30.420 Z-4.493 F300
G1 X-48.450 Y-30.420 Z-4.500 F300
G1 X-48.300 Y-30.420 Z-4.500 F300
G1 X-48.254 Y-30.413 Z-4.500 F300
G1 X-48.212 Y-30.391 Z-4.500 F300
G1 X-48.179 Y-30.358 Z-4.500 F300
G1 X-48.157 Y-30.316 Z-4.500 F300
G1 X-48.150 Y-30.270 Z-4.500 F300
G1 X-48.158 Y-30.130 Z-4.500 F300
G1 X-48.181 Y-29.992 Z-4.500 F300
G1 X-48.220 Y-29.857 Z-4.500 F300
G1 X-48.274 Y-29.728 Z-4.500 F300
G1 X-48.342 Y-29.605 Z-4.500 F300
G1 X-48.423 Y-29.491 Z-4.500 F300
G1 X-48.516 Y-29.386 Z-4.500 F300
G1 X-48.621 Y-29.293 Z-4.500 F300
G1 X-48.735 Y-29.212 Z-4.500 F300
G1 X-48.858 Y-29.144 Z-4.500 F300
G1 X-48.987 Y-29.090 Z-4.500 F300
G1 X-49.122 Y-29.051 Z-4.500 F300
G1 X-49.260 Y-29.028 Z-4.500 F300
G1 X-49.400 Y-29.020 Z-4.500 F300
G1 X-49.540 Y-29.028 Z-4.500 F300
G1 X-49.678 Y-29.051 Z-4.500 F300
G1 X-49.813 Y-29.090 Z-4.500 F300
G1 X-49.942 Y-29.144 Z-4.500 F300
G1 X-50.065 Y-29.212 Z-4.500 F300
G1 X-50.179 Y-29.293 Z-4.500 F300
G1 X-50.284 Y-29.386 Z-4.500 F300
G1 X-50.377 Y-29.491 Z-4.500 F300
G1 X-50.458 Y-29.605 Z-4.500 F300
G1 X-50.526 Y-29.728 Z-4.500 F300
G1 X-50.580 Y-29.857 Z-4.500 F300
G1 X-50.619 Y-29.992 Z-4.500 F300
G1 X-50.642 Y-30.130 Z-4.500 F300
G1 X-50.650 Y-30.270 Z-4.500 F300
G1 X-50.642 Y-30.410 Z-4.500 F300
G1 X-50.619 Y-30.548 Z-4.500 F300
G1 X-50.580 Y-30.683 Z-4.500 F300
G1 X-50.526 Y-30.812 Z-4.500 F300
G1 X-50.458 Y-30.935 Z-4.500 F300
G1 X-50.377 Y-31.049 Z-4.500 F300
G1 X-50.284 Y-31.154 Z-4.500 F300
G1 X-50.179 Y-31.247 Z-4.500 F300
G1 X-50.065 Y-31.328 Z-4.500 F300
G1 X-49.942 Y-31.396 Z-4.500 F300
G1 X-49.813 Y-31.450 Z-4.500 F300
G1 X-49.678 Y-31.489 Z-4.500 F300
G1 X-49.540 Y-31.512 Z-4.500 F300
G1 X-49.400 Y-31.520 Z-4.500 F300
G1 X-49.260 Y-31.512 Z-4.500 F300
G1 X-49.122 Y-31.489 Z-4.500 F300
G1 X-48.987 Y-31.450 Z-4.500 F300
G1 X-48.858 Y-31.396 Z-4.500 F300
G1 X-48.735 Y-31.328 Z-4.500 F300
G1 X-48.621 Y-31.247 Z-4.500 F300
G1 X-48.516 Y-31.154 Z-4.500 F300
G1 X-48.423 Y-31.049 Z-4.500 F300
G1 X-48.342 Y-30.935 Z-4.500 F300
G1 X-48.274 Y-30.812 Z-4.500 F300
G1 X-48.220 Y-30.683 Z-4.500 F300
G1 X-48.181 Y-30.548 Z-4.500 F300
G1 X-48.158 Y-30.410 Z-4.500 F300
G1 X-48.150 Y-30.270 Z-4.500 F300
G1 X-48.157 Y-30.224 Z-4.500 F3000
G1 X-48.179 Y-30.182 Z-4.500 F3000
G1 X-48.212 Y-30.149 Z-4.500 F3000
G1 X-48.254 Y-30.127 Z-4.500 F3000
G1 X-48.300 Y-30.120 Z-4.500 F3000
G1 X-48.450 Y-30.120 Z-4.500 F3000
G1 X-48.496 Y-30.120 Z-4.493 F3000
G1 X-48.538 Y-30.120 Z-4.471 F3000
G1 X-48.571 Y-30.120 Z-4.438 F3000
G1 X-48.593 Y-30.120 Z-4.396 F3000
G1 X-48.600 Y-30.120 Z-4.350 F3000
G0 X-48.600 Y-30.120 Z5.000
G0 X50.214 Y30.274 Z5.000
G1 X50.214 Y30.274 Z2.000 F150
G1 X50.214 Y30.274 Z-0.850 F150
G1 X50.221 Y30.276 Z-0.896 F300
G1 X50.242 Y30.280 Z-0.938 F300
G1 X50.275 Y30.286 Z-0.971 F300
G1 X50.316 Y30.294 Z-0.993 F300
G1 X50.361 Y30.302 Z-1.000 F300
G1 X50.509 Y30.331 Z-1.000 F300
G1 X50.553 Y30.347 Z-1.000 F300
G1 X50.590 Y30.376 Z-1.000 F300
G1 X50.616 Y30.415 Z-1.000 F300
G1 X50.629 Y30.460 Z-1.000 F300
G1 X50.627 Y30.507 Z-1.000 F300
G1 X50.593 Y30.643 Z-1.000 F300
G1 X50.544 Y30.774 Z-1.000 F300
G1 X50.480 Y30.899 Z-1.000 F300
G1 X50.403 Y31.016 Z-1.000 F300
G1 X50.313 Y31.123 Z-1.000 F300
G1 X50.212 Y31.220 Z-1.000 F300
G1 X50.101 Y31.305 Z-1.000 F300
G1 X49.980 Y31.377 Z-1.000 F300
G1 X49.853 Y31.435 Z-1.000 F300
G1 X49.719 Y31.478 Z-1.000 F300
G1 X49.582 Y31.507 Z-1.000 F300
G1 X49.442 Y31.519 Z-1.000 F300
G1 X49.302 Y31.516 Z-1.000 F300
G1 X49.163 Y31.497 Z-1.000 F300
G1 X49.028 Y31.463 Z-1.000 F300
G1 X48.896 Y31.414 Z-1.000 F300
G1 X48.771 Y31.350 Z-1.000 F300
G1 X48.654 Y31.273 Z-1.000 F300
G1 X48.547 Y31.183 Z-1.000 F300
G1 X48.450 Y31.082 Z-1.000 F300
G1 X48.365 Y30.971 Z-1.000 F300
G1 X48.293 Y30.850 Z-1.000 F300
G1 X48.235 Y30.723 Z-1.000 F300
G1 X48.192 Y30.589 Z-1.000 F300
G1 X48.163 Y30.452 Z-1.000 F300
G1 X48.151 Y30.312 Z-1.000 F300
G1 X48.154 Y30.172 Z-1.000 F300
G1 X48.173 Y30.033 Z-1.000 F300
G1 X48.207 Y29.897 Z-1.000 F300
G1 X48.256 Y29.766 Z-1.000 F300
G1 X48.320 Y29.641 Z-1.000 F300
G1 X48.397 Y29.524 Z-1.000 F300
G1 X48.487 Y29.417 Z-1.000 F300
G1 X48.588 Y29.320 Z-1.000 F300
G1 X48.699 Y29.235 Z-1.000 F300
G1 X48.820 Y29.163 Z-1.000 F300
G1 X48.947 Y29.105 Z-1.000 F300
G1 X49.081 Y29.062 Z-1.000 F300
G1 X49.218 Y29.033 Z-1.000 F300
G1 X49.358 Y29.021 Z-1.000 F300
G1 X49.498 Y29.024 Z-1.000 F300
G1 X49.637 Y29.043 Z-1.000 F300
G1 X49.773 Y29.077 Z-1.000 F300
G1 X49.904 Y29.126 Z-1.000 F300
G1 X50.029 Y29.190 Z-1.000 F300
G1 X50.146 Y29.267 Z-1.000 F300
G1 X50.253 Y29.357 Z-1.000 F300
G1 X50.350 Y29.458 Z-1.000 F300
G1 X50.435 Y29.569 Z-1.000 F300
G1 X50.507 Y29.690 Z-1.000 F300
G1 X50.565 Y29.817 Z-1.000 F300
G1 X50.608 Y29.951 Z-1.000 F300
G1 X50.637 Y30.088 Z-1.000 F300
G1 X50.649 Y30.228 Z-1.000 F300
G1 X50.646 Y30.368 Z-1.000 F300
G1 X50.627 Y30.507 Z-1.000 F300
G1 X50.611 Y30.551 Z-1.000 F3000
G1 X50.583 Y30.588 Z-1.000 F3000
G1 X50.544 Y30.614 Z-1.000 F3000
G1 X50.499 Y30.627 Z-1.000 F3000
G1 X50.452 Y30.625 Z-1.000 F3000
G1 X50.304 Y30.597 Z-1.000 F3000
G1 X50.259 Y30.588 Z-0.993 F3000
G1 X50.218 Y30.580 Z-0.971 F3000
G1 X50.185 Y30.574 Z-0.938 F3000
G1 X50.164 Y30.570 Z-0.896 F3000
G1 X50.157 Y30.569 Z-0.850 F3000
G0 X50.157 Y30.569 Z5.000
G0 X50.214 Y30.274 Z5.000
G1 X50.214 Y30.274 Z1.000 F150
G1 X50.214 Y30.274 Z-1.850 F150
G1 X50.221 Y30.276 Z-1.896 F300
G1 X50.242 Y30.280 Z-1.938 F300
G1 X50.275 Y30.286 Z-1.971 F300
G1 X50.316 Y30.294 Z-1.993 F300
G1 X50.361 Y30.302 Z-2.000 F300
G1 X50.509 Y30.331 Z-2.000 F300
G1 X50.553 Y30.347 Z-2.000 F300
G1 X50.590 Y30.376 Z-2.000 F300
G1 X50.616 Y30.415 Z-2.000 F300
G1 X50.629 Y30.460 Z-2.000 F300
G1 X50.627 Y30.507 Z-2.000 F300
G1 X50.593 Y30.643 Z-2.000 F300
G1 X50.544 Y30.774 Z-2.000 F300
G1 X50.480 Y30.899 Z-2.000 F300
G1 X50.403 Y31.016 Z-2.000 F300
G1 X50.313 Y31.123 Z-2.000 F300
G1 X50.212 Y31.220 Z-2.000 F300
G1 X50.101 Y31.305 Z-2.000 F300
G1 X49.980 Y31.377 Z-2.000 F300
G1 X49.853 Y31.435 Z-2.000 F300
G1 X49.719 Y31.478 Z-2.000 F300
G1 X49.582 Y31.507 Z-2.000 F300
G1 X49.442 Y31.519 Z-2.000 F300
G1 X49.302 Y31.516 Z-2.000 F300
G1 X49.163 Y31.497 Z-2.000 F300
G1 X49.028 Y31.463 Z-2.000 F300
G1 X48.896 Y31.414 Z-2.000 F300
G1 X48.771 Y31.350 Z-2.000 F300
G1 X48.654 Y31.273 Z-2.000 F300
G1 X48.547 Y31.183 Z-2.000 F300
G1 X48.450 Y31.082 Z-2.000 F300
G1 X48.365 Y30.971 Z-2.000 F300
G1 X48.293 Y30.850 Z-2.000 F300
G1 X48.235 Y30.723 Z-2.000 F300
G1 X48.192 Y30.589 Z-2.000 F300
G1 X48.163 Y30.452 Z-2.000 F300
G1 X48.151 Y30.312 Z-2.000 F300
G1 X48.154 Y30.172 Z-2.000 F300
G1 X48.173 Y30.033 Z-2.000 F300
G1 X48.207 Y29.897 Z-2.000 F300
G1 X48.256 Y29.766 Z-2.000 F300
G1 X48.320 Y29.641 Z-2.000 F300
G1 X48.397 Y29.524 Z-2.000 F300
G1 X48.487 Y29.417 Z-2.000 F300
G1 X48.588 Y29.320 Z-2.000 F300
G1 X48.699 Y29.235 Z-2.000 F300
G1 X48.820 Y29.163 Z-2.000 F300
G1 X48.947 Y29.105 Z-2.000 F300
G1 X49.081 Y29.062 Z-2.000 F300
G1 X49.218 Y29.033 Z-2.000 F300
G1 X49.358 Y29.021 Z-2.000 F300
G1 X49.498 Y29.024 Z-2.000 F300
G1 X49.637 Y29.043 Z-2.000 F300
G1 X49.773 Y29.077 Z-2.000 F300
G1 X49.904 Y29.126 Z-2.000 F300
G1 X50.029 Y29.190 Z-2.000 F300
G1 X50.146 Y29.267 Z-2.000 F300
G1 X50.253 Y29.357 Z-2.000 F300
G1 X50.350 Y29.458 Z-2.000 F300
G1 X50.435 Y29.569 Z-2.000 F300
G1 X50.507 Y29.690 Z-2.000 F300
G1 X50.565 Y29.817 Z-2.000 F300
G1 X50.608 Y29.951 Z-2.000 F300
G1 X50.637 Y30.088 Z-2.000 F300
G1 X50.649 Y30.228 Z-2.000 F300
G1 X50.646 Y30.368 Z-2.000 F300
G1 X50.627 Y30.507 Z-2.000 F300
G1 X50.611 Y30.551 Z-2.000 F3000
G1 X50.583 Y30.588 Z-2.000 F3000
G1 X50.544 Y30.614 Z-2.000 F3000
G1 X50.499 Y30.627 Z-2.000 F3000
G1 X50.452 Y30.625 Z-2.000 F3000
G1 X50.304 Y30.597 Z-2.000 F3000
G1 X50.259 Y30.588 Z-1.993 F3000
G1 X50.218 Y30.580 Z-1.971 F3000
G1 X50.185 Y30.574 Z-1.938 F3000
G1 X50.164 Y30.570 Z-1.896 F3000
G1 X50.157 Y30.569 Z-1.850 F3000
G0 X50.157 Y30.569 Z5.000
G0 X50.214 Y30.274 Z5.000
G1 X50.214 Y30.274 Z0.000 F150
G1 X50.214 Y30.274 Z-2.850 F150
G1 X50.221 Y30.276 Z-2.896 F300
G1 X50.242 Y30.280 Z-2.938 F300
G1 X50.275 Y30.286 Z-2.971 F300
G1 X50.316 Y30.294 Z-2.993 F300
G1 X50.361 Y30.302 Z-3.000 F300
G1 X50.509 Y30.331 Z-3.000 F300
G1 X50.553 Y30.347 Z-3.000 F300
G1 X50.590 Y30.376 Z-3.000 F300
G1 X50.616 Y30.415 Z-3.000 F300
G1 X50.629 Y30.460 Z-3.000 F300
G1 X50.627 Y30.507 Z-3.000 F300
G1 X50.593 Y30.643 Z-3.000 F300
G1 X50.544 Y30.774 Z-3.000 F300
G1 X50.480 Y30.899 Z-3.000 F300
G1 X50.403 Y31.016 Z-3.000 F300
G1 X50.313 Y31.123 Z-3.000 F300
G1 X50.212 Y31.220 Z-3.000 F300
G1 X50.101 Y31.305 Z-3.000 F300
G1 X49.980 Y31.377 Z-3.000 F300
G1 X49.853 Y31.435 Z-3.000 F300
G1 X49.719 Y31.478 Z-3.000 F300
G1 X49.582 Y31.507 Z-3.000 F300
G1 X49.442 Y31.519 Z-3.000 F300
G1 X49.302 Y31.516 Z-3.000 F300
G1 X49.163 Y31.497 Z-3.000 F300
G1 X49.028 Y31.463 Z-3.000 F300
G1 X48.896 Y31.414 Z-3.000 F300
G1 X48.771 Y31.350 Z-3.000 F300
G1 X48.654 Y31.273 Z-3.000 F300
G1 X48.547 Y31.183 Z-3.000 F300
G1 X48.450 Y31.082 Z-3.000 F300
G1 X48.365 Y30.971 Z-3.000 F300
G1 X48.293 Y30.850 Z-3.000 F300
G1 X48.235 Y30.723 Z-3.000 F300
G1 X48.192 Y30.589 Z-3.000 F300
G1 X48.163 Y30.452 Z-3.000 F300
G1 X48.151 Y30.312 Z-3.000 F300
G1 X48.154 Y30.172 Z-3.000 F300
G1 X48.173 Y30.033 Z-3.000 F300
G1 X48.207 Y29.897 Z-3.000 F300
G1 X48.256 Y29.766 Z-3.000 F300
G1 X48.320 Y29.641 Z-3.000 F300
G1 X48.397 Y29.524 Z-3.000 F300
G1 X48.487 Y29.417 Z-3.000 F300
G1 X48.588 Y29.320 Z-3.000 F300
G1 X48.699 Y29.235 Z-3.000 F300
G1 X48.820 Y29.163 Z-3.000 F300
G1 X48.947 Y29.105 Z-3.000 F300
G1 X49.081 Y29.062 Z-3.000 F300
G1 X49.218 Y29.033 Z-3.000 F300
G1 X49.358 Y29.021 Z-3.000 F300
G1 X49.498 Y29.024 Z-3.000 F300
G1 X49.637 Y29.043 Z-3.000 F300
G1 X49.773 Y29.077 Z-3.000 F300
G1 X49.904 Y29.126 Z-3.000 F300
G1 X50.029 Y29.190 Z-3.000 F300
G1 X50.146 Y29.267 Z-3.000 F300
G1 X50.253 Y29.357 Z-3.000 F300
G1 X50.350 Y29.458 Z-3.000 F300
G1 X50.435 Y29.569 Z-3.000 F300
G1 X50.507 Y29.690 Z-3.000 F300
G1 X50.565 Y29.817 Z-3.000 F300
G1 X50.608 Y29.951 Z-3.000 F300
G1 X50.637 Y30.088 Z-3.000 F300
G1 X50.649 Y30.228 Z-3.000 F300
G1 X50.646 Y30.368 Z-3.000 F300
G1 X50.627 Y30.507 Z-3.000 F300
G1 X50.611 Y30.551 Z-3.000 F3000
G1 X50.583 Y30.588 Z-3.000 F3000
G1 X50.544 Y30.614 Z-3.000 F3000
G1 X50.499 Y30.627 Z-3.000 F3000
G1 X50.452 Y30.625 Z-3.000 F3000
G1 X50.304 Y30.597 Z-3.000 F3000
G1 X50.259 Y30.588 Z-2.993 F3000
G1 X50.218 Y30.580 Z-2.971 F3000
G1 X50.185 Y30.574 Z-2.938 F3000
G1 X50.164 Y30.570 Z-2.896 F3000
G1 X50.157 Y30.569 Z-2.850 F3000
G0 X50.157 Y30.569 Z5.000
G0 X50.214 Y30.274 Z5.000
G1 X50.214 Y30.274 Z-1.000 F150
G1 X50.214 Y30.274 Z-3.850 F150
G1 X50.221 Y30.276 Z-3.896 F300
G1 X50.242 Y30.280 Z-3.938 F300
G1 X50.275 Y30.286 Z-3.971 F300
G1 X50.316 Y30.294 Z-3.993 F300
G1 X50.361 Y30.302 Z-4.000 F300
G1 X50.509 Y30.331 Z-4.000 F300
G1 X50.553 Y30.347 Z-4.000 F300
G1 X50.590 Y30.376 Z-4.000 F300
G1 X50.616 Y30.415 Z-4.000 F300
G1 X50.629 Y30.460 Z-4.000 F300
G1 X50.627 Y30.507 Z-4.000 F300
G1 X50.593 Y30.643 Z-4.000 F300
G1 X50.544 Y30.774 Z-4.000 F300
G1 X50.480 Y30.899 Z-4.000 F300
G1 X50.403 Y31.016 Z-4.000 F300
G1 X50.313 Y31.123 Z-4.000 F300
G1 X50.212 Y31.220 Z-4.000 F300
G1 X50.101 Y31.305 Z-4.000 F300
G1 X49.980 Y31.377 Z-4.000 F300
G1 X49.853 Y31.435 Z-4.000 F300
G1 X49.719 Y31.478 Z-4.000 F300
G1 X49.582 Y31.507 Z-4.000 F300
G1 X49.442 Y31.519 Z-4.000 F300
G1 X49.302 Y31.516 Z-4.000 F300
G1 X49.163 Y31.497 Z-4.000 F300
G1 X49.028 Y31.463 Z-4.000 F300
G1 X48.896 Y31.414 Z-4.000 F300
G1 X48.771 Y31.350 Z-4.000 F300
G1 X48.654 Y31.273 Z-4.000 F300
G1 X48.547 Y31.183 Z-4.000 F300
G1 X48.450 Y31.082 Z-4.000 F300
G1 X48.365 Y30.971 Z-4.000 F300
G1 X48.293 Y30.850 Z-4.000 F300
G1 X48.235 Y30.723 Z-4.000 F300
G1 X48.192 Y30.589 Z-4.000 F300
G1 X48.163 Y30.452 Z-4.000 F300
G1 X48.151 Y30.312 Z-4.000 F300
G1 X48.154 Y30.172 Z-4.000 F300
G1 X48.173 Y30.033 Z-4.000 F300
G1 X48.207 Y29.897 Z-4.000 F300
G1 X48.256 Y29.766 Z-4.000 F300
G1 X48.320 Y29.641 Z-4.000 F300
G1 X48.397 Y29.524 Z-4.000 F300
G1 X48.487 Y29.417 Z-4.000 F300
G1 X48.588 Y29.320 Z-4.000 F300
G1 X48.699 Y29.235 Z-4.000 F300
G1 X48.820 Y29.163 Z-4.000 F300
G1 X48.947 Y29.105 Z-4.000 F300
G1 X49.081 Y29.062 Z-4.000 F300
G1 X49.218 Y29.033 Z-4.000 F300
G1 X49.358 Y29.021 Z-4.000 F300
G1 X49.498 Y29.024 Z-4.000 F300
G1 X49.637 Y29.043 Z-4.000 F300
G1 X49.773 Y29.077 Z-4.000 F300
G1 X49.904 Y29.126 Z-4.000 F300
G1 X50.029 Y29.190 Z-4.000 F300
G1 X50.146 Y29.267 Z-4.000 F300
G1 X50.253 Y29.357 Z-4.000 F300
G1 X50.350 Y29.458 Z-4.000 F300
G1 X50.435 Y29.569 Z-4.000 F300
G1 X50.507 Y29.690 Z-4.000 F300
G1 X50.565 Y29.817 Z-4.000 F300
G1 X50.608 Y29.951 Z-4.000 F300
G1 X50.637 Y30.088 Z-4.000 F300
G1 X50.649 Y30.228 Z-4.000 F300
G1 X50.646 Y30.368 Z-4.000 F300
G1 X50.627 Y30.507 Z-4.000 F300
G1 X50.611 Y30.551 Z-4.000 F3000
G1 X50.583 Y30.588 Z-4.000 F3000
G1 X50.544 Y30.614 Z-4.000 F3000
G1 X50.499 Y30.627 Z-4.000 F3000
G1 X50.452 Y30.625 Z-4.000 F3000
G1 X50.304 Y30.597 Z-4.000 F3000
G1 X50.259 Y30.588 Z-3.993 F3000
G1 X50.218 Y30.580 Z-3.971 F3000
G1 X50.185 Y30.574 Z-3.938 F3000
G1 X50.164 Y30.570 Z-3.896 F3000
G1 X50.157 Y30.569 Z-3.850 F3000
G0 X50.157 Y30.569 Z5.000
G0 X50.214 Y30.274 Z5.000
G1 X50.214 Y30.274 Z-2.000 F150
G1 X50.214 Y30.274 Z-4.350 F150
G1 X50.221 Y30.276 Z-4.396 F300
G1 X50.242 Y30.280 Z-4.438 F300
G1 X50.275 Y30.286 Z-4.471 F300
G1 X50.316 Y30.294 Z-4.493 F300
G1 X50.361 Y30.302 Z-4.500 F300
G1 X50.509 Y30.331 Z-4.500 F300
G1 X50.553 Y30.347 Z-4.500 F300
G1 X50.590 Y30.376 Z-4.500 F300
G1 X50.616 Y30.415 Z-4.500 F300
G1 X50.629 Y30.460 Z-4.500 F300
G1 X50.627 Y30.507 Z-4.500 F300
G1 X50.593 Y30.643 Z-4.500 F300
G1 X50.544 Y30.774 Z-4.500 F300
G1 X50.480 Y30.899 Z-4.500 F300
G1 X50.403 Y31.016 Z-4.500 F300
G1 X50.313 Y31.123 Z-4.500 F300
G1 X50.212 Y31.220 Z-4.500 F300
G1 X50.101 Y31.305 Z-4.500 F300
G1 X49.980 Y31.377 Z-4.500 F300
G1 X49.853 Y31.435 Z-4.500 F300
G1 X49.719 Y31.478 Z-4.500 F300
G1 X49.582 Y31.507 Z-4.500 F300
G1 X49.442 Y31.519 Z-4.500 F300
G1 X49.302 Y31.516 Z-4.500 F300
G1 X49.163 Y31.497 Z-4.500 F300
G1 X49.028 Y31.463 Z-4.500 F300
G1 X48.896 Y31.414 Z-4.500 F300
G1 X48.771 Y31.350 Z-4.500 F300
G1 X48.654 Y31.273 Z-4.500 F300
G1 X48.547 Y31.183 Z-4.500 F300
G1 X48.450 Y31.082 Z-4.500 F300
G1 X48.365 Y30.971 Z-4.500 F300
G1 X48.293 Y30.850 Z-4.500 F300
G1 X48.235 Y30.723 Z-4.500 F300
G1 X48.192 Y30.589 Z-4.500 F300
G1 X48.163 Y30.452 Z-4.500 F300
G1 X48.151 Y30.312 Z-4.500 F300
G1 X48.154 Y30.172 Z-4.500 F300
G1 X48.173 Y30.033 Z-4.500 F300
G1 X48.207 Y29.897 Z-4.500 F300
G1 X48.256 Y29.766 Z-4.500 F300
G1 X48.320 Y29.641 Z-4.500 F300
G1 X48.397 Y29.524 Z-4.500 F300
G1 X48.487 Y29.417 Z-4.500 F300
G1 X48.588 Y29.320 Z-4.500 F300
G1 X48.699 Y29.235 Z-4.500 F300
G1 X48.820 Y29.163 Z-4.500 F300
G1 X48.947 Y29.105 Z-4.500 F300
G1 X49.081 Y29.062 Z-4.500 F300
G1 X49.218 Y29.033 Z-4.500 F300
G1 X49.358 Y29.021 Z-4.500 F300
G1 X49.498 Y29.024 Z-4.500 F300
G1 X49.637 Y29.043 Z-4.500 F300
G1 X49.773 Y29.077 Z-4.500 F300
G1 X49.904 Y29.126 Z-4.500 F300
G1 X50.029 Y29.190 Z-4.500 F300
G1 X50.146 Y29.267 Z-4.500 F300
G1 X50.253 Y29.357 Z-4.500 F300
G1 X50.350 Y29.458 Z-4.500 F300
G1 X50.435 Y29.569 Z-4.500 F300
G1 X50.507 Y29.690 Z-4.500 F300
G1 X50.565 Y29.817 Z-4.500 F300
G1 X50.608 Y29.951 Z-4.500 F300
G1 X50.637 Y30.088 Z-4.500 F300
G1 X50.649 Y30.228 Z-4.500 F300
G1 X50.646 Y30.368 Z-4.500 F300
G1 X50.627 Y30.507 Z-4.500 F300
G1 X50.611 Y30.551 Z-4.500 F3000
G1 X50.583 Y30.588 Z-4.500 F3000
G1 X50.544 Y30.614 Z-4.500 F3000
G1 X50.499 Y30.627 Z-4.500 F3000
G1 X50.452 Y30.625 Z-4.500 F3000
G1 X50.304 Y30.597 Z-4.500 F3000
G1 X50.259 Y30.588 Z-4.493 F3000
G1 X50.218 Y30.580 Z-4.471 F3000
G1 X50.185 Y30.574 Z-4.438 F3000
G1 X50.164 Y30.570 Z-4.396 F3000
G1 X50.157 Y30.569 Z-4.350 F3000
G0 X50.157 Y30.569 Z15.000

;2D Contour2
G0 X-49.550 Y35.470 Z15.000
G0 X-49.550 Y35.470 Z15.000
G0 X-49.550 Y35.470 Z5.000
G1 X-49.550 Y35.470 Z2.000 F150
G1 X-49.550 Y35.470 Z-0.850 F150
G1 X-49.550 Y35.463 Z-0.896 F300
G1 X-49.550 Y35.441 Z-0.938 F300
G1 X-49.550 Y35.408 Z-0.971 F300
G1 X-49.550 Y35.366 Z-0.993 F300
G1 X-49.550 Y35.320 Z-1.000 F300
G1 X-49.550 Y35.170 Z-1.000 F300
G1 X-49.543 Y35.124 Z-1.000 F300
G1 X-49.521 Y35.082 Z-1.000 F300
G1 X-49.488 Y35.049 Z-1.000 F300
G1 X-49.446 Y35.027 Z-1.000 F300
G1 X-49.400 Y35.020 Z-1.000 F300
G1 X49.400 Y35.020 Z-1.000 F300
G1 X49.666 Y35.013 Z-1.000 F300
G1 X49.932 Y34.990 Z-1.000 F300
G1 X50.196 Y34.953 Z-1.000 F300
G1 X50.457 Y34.901 Z-1.000 F300
G1 X50.715 Y34.834 Z-1.000 F300
G1 X50.969 Y34.753 Z-1.000 F300
G1 X51.218 Y34.658 Z-1.000 F300
G1 X51.461 Y34.550 Z-1.000 F300
G1 X51.698 Y34.427 Z-1.000 F300
G1 X51.927 Y34.292 Z-1.000 F300
G1 X52.149 Y34.144 Z-1.000 F300
G1 X52.362 Y33.984 Z-1.000 F300
G1 X52.565 Y33.812 Z-1.000 F300
G1 X52.759 Y33.629 Z-1.000 F300
G1 X52.942 Y33.435 Z-1.000 F300
G1 X53.114 Y33.232 Z-1.000 F300
G1 X53.274 Y33.019 Z-1.000 F300
G1 X53.422 Y32.797 Z-1.000 F300
G1 X53.557 Y32.568 Z-1.000 F300
G1 X53.680 Y32.331 Z-1.000 F300
G1 X53.788 Y32.088 Z-1.000 F300
G1 X53.883 Y31.839 Z-1.000 F300
G1 X53.964 Y31.585 Z-1.000 F300
G1 X54.031 Y31.327 Z-1.000 F300
G1 X54.083 Y31.066 Z-1.000 F300
G1 X54.120 Y30.802 Z-1.000 F300
G1 X54.143 Y30.536 Z-1.000 F300
G1 X54.150 Y30.270 Z-1.000 F300
G1 X54.150 Y-30.270 Z-1.000 F300
G1 X54.143 Y-30.536 Z-1.000 F300
G1 X54.120 Y-30.802 Z-1.000 F300
G1 X54.083 Y-31.066 Z-1.000 F300
G1 X54.031 Y-31.327 Z-1.000 F300
G1 X53.964 Y-31.585 Z-1.000 F300
G1 X53.883 Y-31.839 Z-1.000 F300
G1 X53.788 Y-32.088 Z-1.000 F300
G1 X53.680 Y-32.331 Z-1.000 F300
G1 X53.557 Y-32.568 Z-1.000 F300
G1 X53.422 Y-32.797 Z-1.000 F300
G1 X53.274 Y-33.019 Z-1.000 F300
G1 X53.114 Y-33.232 Z-1.000 F300
G1 X52.942 Y-33.435 Z-1.000 F300
G1 X52.759 Y-33.629 Z-1.000 F300
G1 X52.565 Y-33.812 Z-1.000 F300
G1 X52.362 Y-33.984 Z-1.000 F300
G1 X52.149 Y-34.144 Z-1.000 F300
G1 X51.927 Y-34.292 Z-1.000 F300
G1 X51.698 Y-34.427 Z-1.000 F300
G1 X51.461 Y-34.550 Z-1.000 F300
G1 X51.218 Y-34.658 Z-1.000 F300
G1 X50.969 Y-34.753 Z-1.000 F300
G1 X50.715 Y-34.834 Z-1.000 F300
G1 X50.457 Y-34.901 Z-1.000 F300
G1 X50.196 Y-34.953 Z-1.000 F300
G1 X49.932 Y-34.990 Z-1.000 F300
G1 X49.666 Y-35.013 Z-1.000 F300
G1 X49.400 Y-35.020 Z-1.000 F300
G1 X-49.400 Y-35.020 Z-1.000 F300
G1 X-49.666 Y-35.013 Z-1.000 F300
G1 X-49.932 Y-34.990 Z-1.000 F300
G1 X-50.196 Y-34.953 Z-1.000 F300
G1 X-50.457 Y-34.901 Z-1.000 F300
G1 X-50.715 Y-34.834 Z-1.000 F300
G1 X-50.969 Y-34.753 Z-1.000 F300
G1 X-51.218 Y-34.658 Z-1.000 F300
G1 X-51.461 Y-34.550 Z-1.000 F300
G1 X-51.698 Y-34.427 Z-1.000 F300
G1 X-51.927 Y-34.292 Z-1.000 F300
G1 X-52.149 Y-34.144 Z-1.000 F300
G1 X-52.362 Y-33.984 Z-1.000 F300
G1 X-52.565 Y-33.812 Z-1.000 F300
G1 X-52.759 Y-33.629 Z-1.000 F300
G1 X-52.942 Y-33.435 Z-1.000 F300
G1 X-53.114 Y-33.232 Z-1.000 F300
G1 X-53.274 Y-33.019 Z-1.000 F300
G1 X-53.422 Y-32.797 Z-1.000 F300
G1 X-53.557 Y-32.568 Z-1.000 F300
G1 X-53.680 Y-32.331 Z-1.000 F300
G1 X-53.788 Y-32.088 Z-1.000 F300
G1 X-53.883 Y-31.839 Z-1.000 F300
G1 X-53.964 Y-31.585 Z-1.000 F300
G1 X-54.031 Y-31.327 Z-1.000 F300
G1 X-54.083 Y-31.066 Z-1.000 F300
G1 X-54.120 Y-30.802 Z-1.000 F300
G1 X-54.143 Y-30.536 Z-1.000 F300
G1 X-54.150 Y-30.270 Z-1.000 F300
G1 X-54.150 Y30.270 Z-1.000 F300
G1 X-54.143 Y30.536 Z-1.000 F300
G1 X-54.120 Y30.802 Z-1.000 F300
G1 X-54.083 Y31.066 Z-1.000 F300
G1 X-54.031 Y31.327 Z-1.000 F300
G1 X-53.964 Y31.585 Z-1.000 F300
G1 X-53.883 Y31.839 Z-1.000 F300
G1 X-53.788 Y32.088 Z-1.000 F300
G1 X-53.680 Y32.331 Z-1.000 F300
G1 X-53.557 Y32.568 Z-1.000 F300
G1 X-53.422 Y32.797 Z-1.000 F300
G1 X-53.274 Y33.019 Z-1.000 F300
G1 X-53.114 Y33.232 Z-1.000 F300
G1 X-52.942 Y33.435 Z-1.000 F300
G1 X-52.759 Y33.629 Z-1.000 F300
G1 X-52.565 Y33.812 Z-1.000 F300
G1 X-52.362 Y33.984 Z-1.000 F300
G1 X-52.149 Y34.144 Z-1.000 F300
G1 X-51.927 Y34.292 Z-1.000 F300
G1 X-51.698 Y34.427 Z-1.000 F300
G1 X-51.461 Y34.550 Z-1.000 F300
G1 X-51.218 Y34.658 Z-1.000 F300
G1 X-50.969 Y34.753 Z-1.000 F300
G1 X-50.715 Y34.834 Z-1.000 F300
G1 X-50.457 Y34.901 Z-1.000 F300
G1 X-50.196 Y34.953 Z-1.000 F300
G1 X-49.932 Y34.990 Z-1.000 F300
G1 X-49.666 Y35.013 Z-1.000 F300
G1 X-49.400 Y35.020 Z-1.000 F300
G1 X-49.354 Y35.027 Z-1.000 F3000
G1 X-49.312 Y35.049 Z-1.000 F3000
G1 X-49.279 Y35.082 Z-1.000 F3000
G1 X-49.257 Y35.124 Z-1.000 F3000
G1 X-49.250 Y35.170 Z-1.000 F3000
G1 X-49.250 Y35.320 Z-1.000 F3000
G1 X-49.250 Y35.366 Z-0.993 F3000
G1 X-49.250 Y35.408 Z-0.971 F3000
G1 X-49.250 Y35.441 Z-0.938 F3000
G1 X-49.250 Y35.463 Z-0.896 F3000
G1 X-49.250 Y35.470 Z-0.850 F3000
G0 X-49.250 Y35.470 Z5.000
G0 X-49.550 Y35.470 Z5.000
G1 X-49.550 Y35.470 Z1.000 F150
G1 X-49.550 Y35.470 Z-1.850 F150
G1 X-49.550 Y35.463 Z-1.896 F300
G1 X-49.550 Y35.441 Z-1.938 F300
G1 X-49.550 Y35.408 Z-1.971 F300
G1 X-49.550 Y35.366 Z-1.993 F300
G1 X-49.550 Y35.320 Z-2.000 F300
G1 X-49.550 Y35.170 Z-2.000 F300
G1 X-49.543 Y35.124 Z-2.000 F300
G1 X-49.521 Y35.082 Z-2.000 F300
G1 X-49.488 Y35.049 Z-2.000 F300
G1 X-49.446 Y35.027 Z-2.000 F300
G1 X-49.400 Y35.020 Z-2.000 F300
G1 X49.400 Y35.020 Z-2.000 F300
G1 X49.666 Y35.013 Z-2.000 F300
G1 X49.932 Y34.990 Z-2.000 F300
G1 X50.196 Y34.953 Z-2.000 F300
G1 X50.457 Y34.901 Z-2.000 F300
G1 X50.715 Y34.834 Z-2.000 F300
G1 X50.969 Y34.753 Z-2.000 F300
G1 X51.218 Y34.658 Z-2.000 F300
G1 X51.461 Y34.550 Z-2.000 F300
G1 X51.698 Y34.427 Z-2.000 F300
G1 X51.927 Y34.292 Z-2.000 F300
G1 X52.149 Y34.144 Z-2.000 F300
G1 X52.362 Y33.984 Z-2.000 F300
G1 X52.565 Y33.812 Z-2.000 F300
G1 X52.759 Y33.629 Z-2.000 F300
G1 X52.942 Y33.435 Z-2.000 F300
G1 X53.114 Y33.232 Z-2.000 F300
G1 X53.274 Y33.019 Z-2.000 F300
G1 X53.422 Y32.797 Z-2.000 F300
G1 X53.557 Y32.568 Z-2.000 F300
G1 X53.680 Y32.331 Z-2.000 F300
G1 X53.788 Y32.088 Z-2.000 F300
G1 X53.883 Y31.839 Z-2.000 F300
G1 X53.964 Y31.585 Z-2.000 F300
G1 X54.031 Y31.327 Z-2.000 F300
G1 X54.083 Y31.066 Z-2.000 F300
G1 X54.120 Y30.802 Z-2.000 F300
G1 X54.143 Y30.536 Z-2.000 F300
G1 X54.150 Y30.270 Z-2.000 F300
G1 X54.150 Y-30.270 Z-2.000 F300
G1 X54.143 Y-30.536 Z-2.000 F300
G1 X54.120 Y-30.802 Z-2.000 F300
G1 X54.083 Y-31.066 Z-2.000 F300
G1 X54.031 Y-31.327 Z-2.000 F300
G1 X53.964 Y-31.585 Z-2.000 F300
G1 X53.883 Y-31.839 Z-2.000 F300
G1 X53.788 Y-32.088 Z-2.000 F300
G1 X53.680 Y-32.331 Z-2.000 F300
G1 X53.557 Y-32.568 Z-2.000 F300
G1 X53.422 Y-32.797 Z-2.000 F300
G1 X53.274 Y-33.019 Z-2.000 F300
G1 X53.114 Y-33.232 Z-2.000 F300
G1 X52.942 Y-33.435 Z-2.000 F300
G1 X52.759 Y-33.629 Z-2.000 F300
G1 X52.565 Y-33.812 Z-2.000 F300
G1 X52.362 Y-33.984 Z-2.000 F300
G1 X52.149 Y-34.144 Z-2.000 F300
G1 X51.927 Y-34.292 Z-2.000 F300
G1 X51.698 Y-34.427 Z-2.000 F300
G1 X51.461 Y-34.550 Z-2.000 F300
G1 X51.218 Y-34.658 Z-2.000 F300
G1 X50.969 Y-34.753 Z-2.000 F300
G1 X50.715 Y-34.834 Z-2.000 F300
G1 X50.457 Y-34.901 Z-2.000 F300
G1 X50.196 Y-34.953 Z-2.000 F300
G1 X49.932 Y-34.990 Z-2.000 F300
G1 X49.666 Y-35.013 Z-2.000 F300
G1 X49.400 Y-35.020 Z-2.000 F300
G1 X-49.400 Y-35.020 Z-2.000 F300
G1 X-49.666 Y-35.013 Z-2.000 F300
G1 X-49.932 Y-34.990 Z-2.000 F300
G1 X-50.196 Y-34.953 Z-2.000 F300
G1 X-50.457 Y-34.901 Z-2.000 F300
G1 X-50.715 Y-34.834 Z-2.000 F300
G1 X-50.969 Y-34.753 Z-2.000 F300
G1 X-51.218 Y-34.658 Z-2.000 F300
G1 X-51.461 Y-34.550 Z-2.000 F300
G1 X-51.698 Y-34.427 Z-2.000 F300
G1 X-51.927 Y-34.292 Z-2.000 F300
G1 X-52.149 Y-34.144 Z-2.000 F300
G1 X-52.362 Y-33.984 Z-2.000 F300
G1 X-52.565 Y-33.812 Z-2.000 F300
G1 X-52.759 Y-33.629 Z-2.000 F300
G1 X-52.942 Y-33.435 Z-2.000 F300
G1 X-53.114 Y-33.232 Z-2.000 F300
G1 X-53.274 Y-33.019 Z-2.000 F300
G1 X-53.422 Y-32.797 Z-2.000 F300
G1 X-53.557 Y-32.568 Z-2.000 F300
G1 X-53.680 Y-32.331 Z-2.000 F300
G1 X-53.788 Y-32.088 Z-2.000 F300
G1 X-53.883 Y-31.839 Z-2.000 F300
G1 X-53.964 Y-31.585 Z-2.000 F300
G1 X-54.031 Y-31.327 Z-2.000 F300
G1 X-54.083 Y-31.066 Z-2.000 F300
G1 X-54.120 Y-30.802 Z-2.000 F300
G1 X-54.143 Y-30.536 Z-2.000 F300
G1 X-54.150 Y-30.270 Z-2.000 F300
G1 X-54.150 Y30.270 Z-2.000 F300
G1 X-54.143 Y30.536 Z-2.000 F300
G1 X-54.120 Y30.802 Z-2.000 F300
G1 X-54.083 Y31.066 Z-2.000 F300
G1 X-54.031 Y31.327 Z-2.000 F300
G1 X-53.964 Y31.585 Z-2.000 F300
G1 X-53.883 Y31.839 Z-2.000 F300
G1 X-53.788 Y32.088 Z-2.000 F300
G1 X-53.680 Y32.331 Z-2.000 F300
G1 X-53.557 Y32.568 Z-2.000 F300
G1 X-53.422 Y32.797 Z-2.000 F300
G1 X-53.274 Y33.019 Z-2.000 F300
G1 X-53.114 Y33.232 Z-2.000 F300
G1 X-52.942 Y33.435 Z-2.000 F300
G1 X-52.759 Y33.629 Z-2.000 F300
G1 X-52.565 Y33.812 Z-2.000 F300
G1 X-52.362 Y33.984 Z-2.000 F300
G1 X-52.149 Y34.144 Z-2.000 F300
G1 X-51.927 Y34.292 Z-2.000 F300
G1 X-51.698 Y34.427 Z-2.000 F300
G1 X-51.461 Y34.550 Z-2.000 F300
G1 X-51.218 Y34.658 Z-2.000 F300
G1 X-50.969 Y34.753 Z-2.000 F300
G1 X-50.715 Y34.834 Z-2.000 F300
G1 X-50.457 Y34.901 Z-2.000 F300
G1 X-50.196 Y34.953 Z-2.000 F300
G1 X-49.932 Y34.990 Z-2.000 F300
G1 X-49.666 Y35.013 Z-2.000 F300
G1 X-49.400 Y35.020 Z-2.000 F300
G1 X-49.354 Y35.027 Z-2.000 F3000
G1 X-49.312 Y35.049 Z-2.000 F3000
G1 X-49.279 Y35.082 Z-2.000 F3000
G1 X-49.257 Y35.124 Z-2.000 F3000
G1 X-49.250 Y35.170 Z-2.000 F3000
G1 X-49.250 Y35.320 Z-2.000 F3000
G1 X-49.250 Y35.366 Z-1.993 F3000
G1 X-49.250 Y35.408 Z-1.971 F3000
G1 X-49.250 Y35.441 Z-1.938 F3000
G1 X-49.250 Y35.463 Z-1.896 F3000
G1 X-49.250 Y35.470 Z-1.850 F3000
G0 X-49.250 Y35.470 Z5.000
G0 X-49.550 Y35.470 Z5.000
G1 X-49.550 Y35.470 Z0.000 F150
G1 X-49.550 Y35.470 Z-2.850 F150
G1 X-49.550 Y35.463 Z-2.896 F300
G1 X-49.550 Y35.441 Z-2.938 F300
G1 X-49.550 Y35.408 Z-2.971 F300
G1 X-49.550 Y35.366 Z-2.993 F300
G1 X-49.550 Y35.320 Z-3.000 F300
G1 X-49.550 Y35.170 Z-3.000 F300
G1 X-49.543 Y35.124 Z-3.000 F300
G1 X-49.521 Y35.082 Z-3.000 F300
G1 X-49.488 Y35.049 Z-3.000 F300
G1 X-49.446 Y35.027 Z-3.000 F300
G1 X-49.400 Y35.020 Z-3.000 F300
G1 X49.400 Y35.020 Z-3.000 F300
G1 X49.666 Y35.013 Z-3.000 F300
G1 X49.932 Y34.990 Z-3.000 F300
G1 X50.196 Y34.953 Z-3.000 F300
G1 X50.457 Y34.901 Z-3.000 F300
G1 X50.715 Y34.834 Z-3.000 F300
G1 X50.969 Y34.753 Z-3.000 F300
G1 X51.218 Y34.658 Z-3.000 F300
G1 X51.461 Y34.550 Z-3.000 F300
G1 X51.698 Y34.427 Z-3.000 F300
G1 X51.927 Y34.292 Z-3.000 F300
G1 X52.149 Y34.144 Z-3.000 F300
G1 X52.362 Y33.984 Z-3.000 F300
G1 X52.565 Y33.812 Z-3.000 F300
G1 X52.759 Y33.629 Z-3.000 F300
G1 X52.942 Y33.435 Z-3.000 F300
G1 X53.114 Y33.232 Z-3.000 F300
G1 X53.274 Y33.019 Z-3.000 F300
G1 X53.422 Y32.797 Z-3.000 F300
G1 X53.557 Y32.568 Z-3.000 F300
G1 X53.680 Y32.331 Z-3.000 F300
G1 X53.788 Y32.088 Z-3.000 F300
G1 X53.883 Y31.839 Z-3.000 F300
G1 X53.964 Y31.585 Z-3.000 F300
G1 X54.031 Y31.327 Z-3.000 F300
G1 X54.083 Y31.066 Z-3.000 F300
G1 X54.120 Y30.802 Z-3.000 F300
G1 X54.143 Y30.536 Z-3.000 F300
G1 X54.150 Y30.270 Z-3.000 F300
G1 X54.150 Y-30.270 Z-3.000 F300
G1 X54.143 Y-30.536 Z-3.000 F300
G1 X54.120 Y-30.802 Z-3.000 F300
G1 X54.083 Y-31.066 Z-3.000 F300
G1 X54.031 Y-31.327 Z-3.000 F300
G1 X53.964 Y-31.585 Z-3.000 F300
G1 X53.883 Y-31.839 Z-3.000 F300
G1 X53.788 Y-32.088 Z-3.000 F300
G1 X53.680 Y-32.331 Z-3.000 F300
G1 X53.557 Y-32.568 Z-3.000 F300
G1 X53.422 Y-32.797 Z-3.000 F300
G1 X53.274 Y-33.019 Z-3.000 F300
G1 X53.114 Y-33.232 Z-3.000 F300
G1 X52.942 Y-33.435 Z-3.000 F300
G1 X52.759 Y-33.629 Z-3.000 F300
G1 X52.565 Y-33.812 Z-3.000 F300
G1 X52.362 Y-33.984 Z-3.000 F300
G1 X52.149 Y-34.144 Z-3.000 F300
G1 X51.927 Y-34.292 Z-3.000 F300
G1 X51.698 Y-34.427 Z-3.000 F300
G1 X51.461 Y-34.550 Z-3.000 F300
G1 X51.218 Y-34.658 Z-3.000 F300
G1 X50.969 Y-34.753 Z-3.000 F300
G1 X50.715 Y-34.834 Z-3.000 F300
G1 X50.457 Y-34.901 Z-3.000 F300
G1 X50.196 Y-34.953 Z-3.000 F300
G1 X49.932 Y-34.990 Z-3.000 F300
G1 X49.666 Y-35.013 Z-3.000 F300
G1 X49.400 Y-35.020 Z-3.000 F300
G1 X-49.400 Y-35.020 Z-3.000 F300
G1 X-49.666 Y-35.013 Z-3.000 F300
G1 X-49.932 Y-34.990 Z-3.000 F300
G1 X-50.196 Y-34.953 Z-3.000 F300
G1 X-50.457 Y-34.901 Z-3.000 F300
G1 X-50.715 Y-34.834 Z-3.000 F300
G1 X-50.969 Y-34.753 Z-3.000 F300
G1 X-51.218 Y-34.658 Z-3.000 F300
G1 X-51.461 Y-34.550 Z-3.000 F300
G1 X-51.698 Y-34.427 Z-3.000 F300
G1 X-51.927 Y-34.292 Z-3.000 F300
G1 X-52.149 Y-34.144 Z-3.000 F300
G1 X-52.362 Y-33.984 Z-3.000 F300
G1 X-52.565 Y-33.812 Z-3.000 F300
G1 X-52.759 Y-33.629 Z-3.000 F300
G1 X-52.942 Y-33.435 Z-3.000 F300
G1 X-53.114 Y-33.232 Z-3.000 F300
G1 X-53.274 Y-33.019 Z-3.000 F300
G1 X-53.422 Y-32.797 Z-3.000 F300
G1 X-53.557 Y-32.568 Z-3.000 F300
G1 X-53.680 Y-32.331 Z-3.000 F300
G1 X-53.788 Y-32.088 Z-3.000 F300
G1 X-53.883 Y-31.839 Z-3.000 F300
G1 X-53.964 Y-31.585 Z-3.000 F300
G1 X-54.031 Y-31.327 Z-3.000 F300
G1 X-54.083 Y-31.066 Z-3.000 F300
G1 X-54.120 Y-30.802 Z-3.000 F300
G1 X-54.143 Y-30.536 Z-3.000 F300
G1 X-54.150 Y-30.270 Z-3.000 F300
G1 X-54.150 Y30.270 Z-3.000 F300
G1 X-54.143 Y30.536 Z-3.000 F300
G1 X-54.120 Y30.802 Z-3.000 F300
G1 X-54.083 Y31.066 Z-3.000 F300
G1 X-54.031 Y31.327 Z-3.000 F300
G1 X-53.964 Y31.585 Z-3.000 F300
G1 X-53.883 Y31.839 Z-3.000 F300
G1 X-53.788 Y32.088 Z-3.000 F300
G1 X-53.680 Y32.331 Z-3.000 F300
G1 X-53.557 Y32.568 Z-3.000 F300
G1 X-53.422 Y32.797 Z-3.000 F300
G1 X-53.274 Y33.019 Z-3.000 F300
G1 X-53.114 Y33.232 Z-3.000 F300
G1 X-52.942 Y33.435 Z-3.000 F300
G1 X-52.759 Y33.629 Z-3.000 F300
G1 X-52.565 Y33.812 Z-3.000 F300
G1 X-52.362 Y33.984 Z-3.000 F300
G1 X-52.149 Y34.144 Z-3.000 F300
G1 X-51.927 Y34.292 Z-3.000 F300
G1 X-51.698 Y34.427 Z-3.000 F300
G1 X-51.461 Y34.550 Z-3.000 F300
G1 X-51.218 Y34.658 Z-3.000 F300
G1 X-50.969 Y34.753 Z-3.000 F300
G1 X-50.715 Y34.834 Z-3.000 F300
G1 X-50.457 Y34.901 Z-3.000 F300
G1 X-50.196 Y34.953 Z-3.000 F300
G1 X-49.932 Y34.990 Z-3.000 F300
G1 X-49.666 Y35.013 Z-3.000 F300
G1 X-49.400 Y35.020 Z-3.000 F300
G1 X-49.354 Y35.027 Z-3.000 F3000
G1 X-49.312 Y35.049 Z-3.000 F3000
G1 X-49.279 Y35.082 Z-3.000 F3000
G1 X-49.257 Y35.124 Z-3.000 F3000
G1 X-49.250 Y35.170 Z-3.000 F3000
G1 X-49.250 Y35.320 Z-3.000 F3000
G1 X-49.250 Y35.366 Z-2.993 F3000
G1 X-49.250 Y35.408 Z-2.971 F3000
G1 X-49.250 Y35.441 Z-2.938 F3000
G1 X-49.250 Y35.463 Z-2.896 F3000
G1 X-49.250 Y35.470 Z-2.850 F3000
G0 X-49.250 Y35.470 Z5.000
G0 X-49.550 Y35.470 Z5.000
G1 X-49.550 Y35.470 Z-1.000 F150
G1 X-49.550 Y35.470 Z-3.850 F150
G1 X-49.550 Y35.463 Z-3.896 F300
G1 X-49.550 Y35.441 Z-3.938 F300
G1 X-49.550 Y35.408 Z-3.971 F300
G1 X-49.550 Y35.366 Z-3.993 F300
G1 X-49.550 Y35.320 Z-4.000 F300
G1 X-49.550 Y35.170 Z-4.000 F300
G1 X-49.543 Y35.124 Z-4.000 F300
G1 X-49.521 Y35.082 Z-4.000 F300
G1 X-49.488 Y35.049 Z-4.000 F300
G1 X-49.446 Y35.027 Z-4.000 F300
G1 X-49.400 Y35.020 Z-4.000 F300
G1 X49.400 Y35.020 Z-4.000 F300
G1 X49.666 Y35.013 Z-4.000 F300
G1 X49.932 Y34.990 Z-4.000 F300
G1 X50.196 Y34.953 Z-4.000 F300
G1 X50.457 Y34.901 Z-4.000 F300
G1 X50.715 Y34.834 Z-4.000 F300
G1 X50.969 Y34.753 Z-4.000 F300
G1 X51.218 Y34.658 Z-4.000 F300
G1 X51.461 Y34.550 Z-4.000 F300
G1 X51.698 Y34.427 Z-4.000 F300
G1 X51.927 Y34.292 Z-4.000 F300
G1 X52.149 Y34.144 Z-4.000 F300
G1 X52.362 Y33.984 Z-4.000 F300
G1 X52.565 Y33.812 Z-4.000 F300
G1 X52.759 Y33.629 Z-4.000 F300
G1 X52.942 Y33.435 Z-4.000 F300
G1 X53.114 Y33.232 Z-4.000 F300
G1 X53.274 Y33.019 Z-4.000 F300
G1 X53.422 Y32.797 Z-4.000 F300
G1 X53.557 Y32.568 Z-4.000 F300
G1 X53.680 Y32.331 Z-4.000 F300
G1 X53.788 Y32.088 Z-4.000 F300
G1 X53.883 Y31.839 Z-4.000 F300
G1 X53.964 Y31.585 Z-4.000 F300
G1 X54.031 Y31.327 Z-4.000 F300
G1 X54.083 Y31.066 Z-4.000 F300
G1 X54.120 Y30.802 Z-4.000 F300
G1 X54.143 Y30.536 Z-4.000 F300
G1 X54.150 Y30.270 Z-4.000 F300
G1 X54.150 Y-30.270 Z-4.000 F300
G1 X54.143 Y-30.536 Z-4.000 F300
G1 X54.120 Y-30.802 Z-4.000 F300
G1 X54.083 Y-31.066 Z-4.000 F300
G1 X54.031 Y-31.327 Z-4.000 F300
G1 X53.964 Y-31.585 Z-4.000 F300
G1 X53.883 Y-31.839 Z-4.000 F300
G1 X53.788 Y-32.088 Z-4.000 F300
G1 X53.680 Y-32.331 Z-4.000 F300
G1 X53.557 Y-32.568 Z-4.000 F300
G1 X53.422 Y-32.797 Z-4.000 F300
G1 X53.274 Y-33.019 Z-4.000 F300
G1 X53.114 Y-33.232 Z-4.000 F300
G1 X52.942 Y-33.435 Z-4.000 F300
G1 X52.759 Y-33.629 Z-4.000 F300
G1 X52.565 Y-33.812 Z-4.000 F300
G1 X52.362 Y-33.984 Z-4.000 F300
G1 X52.149 Y-34.144 Z-4.000 F300
G1 X51.927 Y-34.292 Z-4.000 F300
G1 X51.698 Y-34.427 Z-4.000 F300
G1 X51.461 Y-34.550 Z-4.000 F300
G1 X51.218 Y-34.658 Z-4.000 F300
G1 X50.969 Y-34.753 Z-4.000 F300
G1 X50.715 Y-34.834 Z-4.000 F300
G1 X50.457 Y-34.901 Z-4.000 F300
G1 X50.196 Y-34.953 Z-4.000 F300
G1 X49.932 Y-34.990 Z-4.000 F300
G1 X49.666 Y-35.013 Z-4.000 F300
G1 X49.400 Y-35.020 Z-4.000 F300
G1 X-49.400 Y-35.020 Z-4.000 F300
G1 X-49.666 Y-35.013 Z-4.000 F300
G1 X-49.932 Y-34.990 Z-4.000 F300
G1 X-50.196 Y-34.953 Z-4.000 F300
G1 X-50.457 Y-34.901 Z-4.000 F300
G1 X-50.715 Y-34.834 Z-4.000 F300
G1 X-50.969 Y-34.753 Z-4.000 F300
G1 X-51.218 Y-34.658 Z-4.000 F300
G1 X-51.461 Y-34.550 Z-4.000 F300
G1 X-51.698 Y-34.427 Z-4.000 F300
G1 X-51.927 Y-34.292 Z-4.000 F300
G1 X-52.149 Y-34.144 Z-4.000 F300
G1 X-52.362 Y-33.984 Z-4.000 F300
G1 X-52.565 Y-33.812 Z-4.000 F300
G1 X-52.759 Y-33.629 Z-4.000 F300
G1 X-52.942 Y-33.435 Z-4.000 F300
G1 X-53.114 Y-33.232 Z-4.000 F300
G1 X-53.274 Y-33.019 Z-4.000 F300
G1 X-53.422 Y-32.797 Z-4.000 F300
G1 X-53.557 Y-32.568 Z-4.000 F300
G1 X-53.680 Y-32.331 Z-4.000 F300
G1 X-53.788 Y-32.088 Z-4.000 F300
G1 X-53.883 Y-31.839 Z-4.000 F300
G1 X-53.964 Y-31.585 Z-4.000 F300
G1 X-54.031 Y-31.327 Z-4.000 F300
G1 X-54.083 Y-31.066 Z-4.000 F300
G1 X-54.120 Y-30.802 Z-4.000 F300
G1 X-54.143 Y-30.536 Z-4.000 F300
G1 X-54.150 Y-30.270 Z-4.000 F300
G1 X-54.150 Y30.270 Z-4.000 F300
G1 X-54.143 Y30.536 Z-4.000 F300
G1 X-54.120 Y30.802 Z-4.000 F300
G1 X-54.083 Y31.066 Z-4.000 F300
G1 X-54.031 Y31.327 Z-4.000 F300
G1 X-53.964 Y31.585 Z-4.000 F300
G1 X-53.883 Y31.839 Z-4.000 F300
G1 X-53.788 Y32.088 Z-4.000 F300
G1 X-53.680 Y32.331 Z-4.000 F300
G1 X-53.557 Y32.568 Z-4.000 F300
G1 X-53.422 Y32.797 Z-4.000 F300
G1 X-53.274 Y33.019 Z-4.000 F300
G1 X-53.114 Y33.232 Z-4.000 F300
G1 X-52.942 Y33.435 Z-4.000 F300
G1 X-52.759 Y33.629 Z-4.000 F300
G1 X-52.565 Y33.812 Z-4.000 F300
G1 X-52.362 Y33.984 Z-4.000 F300
G1 X-52.149 Y34.144 Z-4.000 F300
G1 X-51.927 Y34.292 Z-4.000 F300
G1 X-51.698 Y34.427 Z-4.000 F300
G1 X-51.461 Y34.550 Z-4.000 F300
G1 X-51.218 Y34.658 Z-4.000 F300
G1 X-50.969 Y34.753 Z-4.000 F300
G1 X-50.715 Y34.834 Z-4.000 F300
G1 X-50.457 Y34.901 Z-4.000 F300
G1 X-50.196 Y34.953 Z-4.000 F300
G1 X-49.932 Y34.990 Z-4.000 F300
G1 X-49.666 Y35.013 Z-4.000 F300
G1 X-49.400 Y35.020 Z-4.000 F300
G1 X-49.354 Y35.027 Z-4.000 F3000
G1 X-49.312 Y35.049 Z-4.000 F3000
G1 X-49.279 Y35.082 Z-4.000 F3000
G1 X-49.257 Y35.124 Z-4.000 F3000
G1 X-49.250 Y35.170 Z-4.000 F3000
G1 X-49.250 Y35.320 Z-4.000 F3000
G1 X-49.250 Y35.366 Z-3.993 F3000
G1 X-49.250 Y35.408 Z-3.971 F3000
G1 X-49.250 Y35.441 Z-3.938 F3000
G1 X-49.250 Y35.463 Z-3.896 F3000
G1 X-49.250 Y35.470 Z-3.850 F3000
G0 X-49.250 Y35.470 Z5.000
G0 X-49.550 Y35.470 Z5.000
G1 X-49.550 Y35.470 Z-2.000 F150
G1 X-49.550 Y35.470 Z-4.350 F150
G1 X-49.550 Y35.463 Z-4.396 F300
G1 X-49.550 Y35.441 Z-4.438 F300
G1 X-49.550 Y35.408 Z-4.471 F300
G1 X-49.550 Y35.366 Z-4.493 F300
G1 X-49.550 Y35.320 Z-4.500 F300
G1 X-49.550 Y35.170 Z-4.500 F300
G1 X-49.543 Y35.124 Z-4.500 F300
G1 X-49.521 Y35.082 Z-4.500 F300
G1 X-49.488 Y35.049 Z-4.500 F300
G1 X-49.446 Y35.027 Z-4.500 F300
G1 X-49.400 Y35.020 Z-4.500 F300
G1 X-2.250 Y35.020 Z-4.500 F300
G1 X-2.250 Y35.020 Z-4.000 F300
G1 X2.250 Y35.020 Z-4.000 F300
G1 X2.250 Y35.020 Z-4.500 F150
G1 X49.400 Y35.020 Z-4.500 F300
G1 X49.666 Y35.013 Z-4.500 F300
G1 X49.932 Y34.990 Z-4.500 F300
G1 X50.196 Y34.953 Z-4.500 F300
G1 X50.457 Y34.901 Z-4.500 F300
G1 X50.715 Y34.834 Z-4.500 F300
G1 X50.969 Y34.753 Z-4.500 F300
G1 X51.218 Y34.658 Z-4.500 F300
G1 X51.461 Y34.550 Z-4.500 F300
G1 X51.698 Y34.427 Z-4.500 F300
G1 X51.927 Y34.292 Z-4.500 F300
G1 X52.149 Y34.144 Z-4.500 F300
G1 X52.362 Y33.984 Z-4.500 F300
G1 X52.565 Y33.812 Z-4.500 F300
G1 X52.759 Y33.629 Z-4.500 F300
G1 X52.942 Y33.435 Z-4.500 F300
G1 X53.114 Y33.232 Z-4.500 F300
G1 X53.274 Y33.019 Z-4.500 F300
G1 X53.422 Y32.797 Z-4.500 F300
G1 X53.557 Y32.568 Z-4.500 F300
G1 X53.680 Y32.331 Z-4.500 F300
G1 X53.788 Y32.088 Z-4.500 F300
G1 X53.883 Y31.839 Z-4.500 F300
G1 X53.964 Y31.585 Z-4.500 F300
G1 X54.031 Y31.327 Z-4.500 F300
G1 X54.083 Y31.066 Z-4.500 F300
G1 X54.120 Y30.802 Z-4.500 F300
G1 X54.143 Y30.536 Z-4.500 F300
G1 X54.150 Y30.270 Z-4.500 F300
G1 X54.150 Y2.250 Z-4.500 F300
G1 X54.150 Y2.250 Z-4.000 F300
G1 X54.150 Y-2.250 Z-4.000 F300
G1 X54.150 Y-2.250 Z-4.500 F150
G1 X54.150 Y-30.270 Z-4.500 F300
G1 X54.143 Y-30.536 Z-4.500 F300
G1 X54.120 Y-30.802 Z-4.500 F300
G1 X54.083 Y-31.066 Z-4.500 F300
G1 X54.031 Y-31.327 Z-4.500 F300
G1 X53.964 Y-31.585 Z-4.500 F300
G1 X53.883 Y-31.839 Z-4.500 F300
G1 X53.788 Y-32.088 Z-4.500 F300
G1 X53.680 Y-32.331 Z-4.500 F300
G1 X53.557 Y-32.568 Z-4.500 F300
G1 X53.422 Y-32.797 Z-4.500 F300
G1 X53.274 Y-33.019 Z-4.500 F300
G1 X53.114 Y-33.232 Z-4.500 F300
G1 X52.942 Y-33.435 Z-4.500 F300
G1 X52.759 Y-33.629 Z-4.500 F300
G1 X52.565 Y-33.812 Z-4.500 F300
G1 X52.362 Y-33.984 Z-4.500 F300
G1 X52.149 Y-34.144 Z-4.500 F300
G1 X51.927 Y-34.292 Z-4.500 F300
G1 X51.698 Y-34.427 Z-4.500 F300
G1 X51.461 Y-34.550 Z-4.500 F300
G1 X51.218 Y-34.658 Z-4.500 F300
G1 X50.969 Y-34.753 Z-4.500 F300
G1 X50.715 Y-34.834 Z-4.500 F300
G1 X50.457 Y-34.901 Z-4.500 F300
G1 X50.196 Y-34.953 Z-4.500 F300
G1 X49.932 Y-34.990 Z-4.500 F300
G1 X49.666 Y-35.013 Z-4.500 F300
G1 X49.400 Y-35.020 Z-4.500 F300
G1 X2.250 Y-35.020 Z-4.500 F300
G1 X2.250 Y-35.020 Z-4.000 F300
G1 X-2.250 Y-35.020 Z-4.000 F300
G1 X-2.250 Y-35.020 Z-4.500 F150
G1 X-49.400 Y-35.020 Z-4.500 F300
G1 X-49.666 Y-35.013 Z-4.500 F300
G1 X-49.932 Y-34.990 Z-4.500 F300
G1 X-50.196 Y-34.953 Z-4.500 F300
G1 X-50.457 Y-34.901 Z-4.500 F300
G1 X-50.715 Y-34.834 Z-4.500 F300
G1 X-50.969 Y-34.753 Z-4.500 F300
G1 X-51.218 Y-34.658 Z-4.500 F300
G1 X-51.461 Y-34.550 Z-4.500 F300
G1 X-51.698 Y-34.427 Z-4.500 F300
G1 X-51.927 Y-34.292 Z-4.500 F300
G1 X-52.149 Y-34.144 Z-4.500 F300
G1 X-52.362 Y-33.984 Z-4.500 F300
G1 X-52.565 Y-33.812 Z-4.500 F300
G1 X-52.759 Y-33.629 Z-4.500 F300
G1 X-52.942 Y-33.435 Z-4.500 F300
G1 X-53.114 Y-33.232 Z-4.500 F300
G1 X-53.274 Y-33.019 Z-4.500 F300
G1 X-53.422 Y-32.797 Z-4.500 F300
G1 X-53.557 Y-32.568 Z-4.500 F300
G1 X-53.680 Y-32.331 Z-4.500 F300
G1 X-53.788 Y-32.088 Z-4.500 F300
G1 X-53.883 Y-31.839 Z-4.500 F300
G1 X-53.964 Y-31.585 Z-4.500 F300
G1 X-54.031 Y-31.327 Z-4.500 F300
G1 X-54.083 Y-31.066 Z-4.500 F300
G1 X-54.120 Y-30.802 Z-4.500 F300
G1 X-54.143 Y-30.536 Z-4.500 F300
G1 X-54.150 Y-30.270 Z-4.500 F300
G1 X-54.150 Y-2.250 Z-4.500 F300
G1 X-54.150 Y-2.250 Z-4.000 F300
G1 X-54.150 Y2.250 Z-4.000 F300
G1 X-54.150 Y2.250 Z-4.500 F150
G1 X-54.150 Y30.270 Z-4.500 F300
G1 X-54.143 Y30.536 Z-4.500 F300
G1 X-54.120 Y30.802 Z-4.500 F300
G1 X-54.083 Y31.066 Z-4.500 F300
G1 X-54.031 Y31.327 Z-4.500 F300
G1 X-53.964 Y31.585 Z-4.500 F300
G1 X-53.883 Y31.839 Z-4.500 F300
G1 X-53.788 Y32.088 Z-4.500 F300
G1 X-53.680 Y32.331 Z-4.500 F300
G1 X-53.557 Y32.568 Z-4.500 F300
G1 X-53.422 Y32.797 Z-4.500 F300
G1 X-53.274 Y33.019 Z-4.500 F300
G1 X-53.114 Y33.232 Z-4.500 F300
G1 X-52.942 Y33.435 Z-4.500 F300
G1 X-52.759 Y33.629 Z-4.500 F300
G1 X-52.565 Y33.812 Z-4.500 F300
G1 X-52.362 Y33.984 Z-4.500 F300
G1 X-52.149 Y34.144 Z-4.500 F300
G1 X-51.927 Y34.292 Z-4.500 F300
G1 X-51.698 Y34.427 Z-4.500 F300
G1 X-51.461 Y34.550 Z-4.500 F300
G1 X-51.218 Y34.658 Z-4.500 F300
G1 X-50.969 Y34.753 Z-4.500 F300
G1 X-50.715 Y34.834 Z-4.500 F300
G1 X-50.457 Y34.901 Z-4.500 F300
G1 X-50.196 Y34.953 Z-4.500 F300
G1 X-49.932 Y34.990 Z-4.500 F300
G1 X-49.666 Y35.013 Z-4.500 F300
G1 X-49.400 Y35.020 Z-4.500 F300
G1 X-49.354 Y35.027 Z-4.500 F3000
G1 X-49.312 Y35.049 Z-4.500 F3000
G1 X-49.279 Y35.082 Z-4.500 F3000
G1 X-49.257 Y35.124 Z-4.500 F3000
G1 X-49.250 Y35.170 Z-4.500 F3000
G1 X-49.250 Y35.320 Z-4.500 F3000
G1 X-49.250 Y35.366 Z-4.493 F3000
G1 X-49.250 Y35.408 Z-4.471 F3000
G1 X-49.250 Y35.441 Z-4.438 F3000
G1 X-49.250 Y35.463 Z-4.396 F3000
G1 X-49.250 Y35.470 Z-4.350 F3000
G0 X-49.250 Y35.470 Z15.000
G0 X0.000 Y0.000
M5
